; generated by PrusaSlicer 2.7.0+win64 on 2023-11-26 at 17:41:41 UTC


;
;
; 

; external perimeters extrusion width = 0.45mm
; perimeters extrusion width = 0.45mm
; infill extrusion width = 0.45mm
; solid infill extrusion width = 0.45mm
; top infill extrusion width = 0.40mm
; support material extrusion width = 0.35mm
; first layer extrusion width = 0.42mm

M73 P0 R66
M73 Q0 S67
M201 X1000 Y1000 Z200 E5000 ; sets maximum accelerations, mm/sec^2
M203 X200 Y200 Z12 E120 ; sets maximum feedrates, mm / sec
M204 S1250 T1250 ; sets acceleration (S) and retract acceleration (R), mm/sec^2
M205 X8.00 Y8.00 Z0.40 E4.50 ; sets the jerk limits, mm/sec
M205 S0 T0 ; sets the minimum extruding and travel feed rate, mm/sec

; printing object 2HU.stl id:0 copy 0
; stop printing object 2HU.stl id:0 copy 0

;TYPE:Custom
M862.3 P "MK3S" ; printer model check
M862.1 P0.4 ; nozzle diameter check
M115 U3.13.1 ; tell printer latest fw version
G90 ; use absolute coordinates
M83 ; extruder relative mode
M104 S215 ; set extruder temp
M140 S60 ; set bed temp
M190 S60 ; wait for bed temp
M109 S215 ; wait for extruder temp
G28 W ; home all without mesh bed level
G80 ; mesh bed leveling

G1 Z0.2 F720
G1 Y-3 F1000 ; go outside print area
G92 E0
G1 X60 E9 F1000 ; intro line
G1 X100 E12.5 F1000 ; intro line
M73 Q0 S66

G92 E0
M221 S95

; Don't change E values below. Excessive value can damage the printer.

M907 E538 ; set extruder motor current
G21 ; set units to millimeters
G90 ; use absolute coordinates
M83 ; use relative distances for extrusion
M900 K0.05 ; Filament gcode LA 1.5
M900 K30 ; Filament gcode LA 1.0

M107
;LAYER_CHANGE
;Z:0.2
;HEIGHT:0.2
;BEFORE_LAYER_CHANGE
G92 E0.0
;0.2


G1 E-.8 F2100
G1 Z.2 F720
;AFTER_LAYER_CHANGE
;0.2
G1 X97.498 Y78.494 F10800
G1 Z.2 F720
G1 E.8 F2100
M204 S800
;TYPE:Skirt/Brim
;WIDTH:0.42
G1 F1200
G1 X99.916 Y76.076 E.10722
G1 X101.596 Y75.38 E.05702
G1 X135.324 Y75.38 E1.05752
G1 X137.005 Y76.076 E.05705
G1 X139.72 Y78.856 E.12184
G1 X144.334 Y85.777 E.26081
G1 X151.404 Y99.875 E.4945
G1 X151.655 Y100.938 E.03425
G1 X151.655 Y111.596 E.33417
G1 X151.404 Y112.659 E.03425
G1 X144.334 Y126.757 E.4945
G1 X139.423 Y134.04 E.27542
G1 X137.005 Y136.458 E.10722
G1 X135.324 Y137.154 E.05705
G1 X101.596 Y137.154 E1.05752
G1 X99.916 Y136.458 E.05702
G1 X97.201 Y133.678 E.12184
G1 X92.587 Y126.757 E.26081
G1 X85.517 Y112.659 E.4945
G1 X85.266 Y111.596 E.03425
G1 X85.266 Y100.938 E.33417
G1 X85.517 Y99.875 E.03425
G1 X92.587 Y85.777 E.4945
G1 X97.464 Y78.543 E.27355
M204 S1000
;WIPE_START
G1 F8640
G1 X97.498 Y78.494 E-.01377
G1 X99.905 Y76.086 E-.78623
;WIPE_END
G1 Z.6 F720
G1 X103.255 Y82.722 F10800
G1 Z.2 F720
G1 E.8 F2100
M204 S800
G1 F1200
G1 X103.353 Y82.585 E.00528
G1 X104.314 Y81.817 E.03857
G1 X105.437 Y81.36 E.03801
G1 X106.739 Y81.217 E.04107
G1 X130.742 Y81.238 E.7526
G1 X131.384 Y81.336 E.02036
G1 X132.561 Y81.791 E.03957
G1 X133.519 Y82.535 E.03803
G1 X133.942 Y83.042 E.0207
G1 X146.191 Y104.217 E.76701
G1 X146.565 Y105.168 E.03204
G1 X146.707 Y106.311 E.03611
G1 X146.57 Y107.344 E.03267
G1 X146.147 Y108.403 E.03576
G1 X134.293 Y128.944 E.7436
G1 X133.516 Y130.002 E.04116
G1 X132.469 Y130.793 E.04114
G1 X131.294 Y131.217 E.03917
G1 X130.076 Y131.318 E.03832
G1 X106.749 Y131.317 E.7314
G1 X105.566 Y131.205 E.03726
G1 X104.459 Y130.798 E.03698
G1 X103.42 Y130.017 E.04075
G1 X102.629 Y128.947 E.04172
G1 X90.765 Y108.389 E.74422
G1 X90.356 Y107.366 E.03454
G1 X90.213 Y106.276 E.03447
G1 X90.351 Y105.19 E.03432
G1 X90.774 Y104.131 E.03576
G1 X102.622 Y83.599 E.74326
G1 X103.22 Y82.771 E.03202
M204 S1000
G1 X103.523 Y82.988 F10800
M204 S800
G1 F1200
G1 X103.619 Y82.854 E.00517
G1 X104.492 Y82.15 E.03516
G1 X105.54 Y81.723 E.03548
G1 X106.752 Y81.594 E.03822
G1 X130.133 Y81.593 E.73309
G1 X131.286 Y81.7 E.03631
G1 X132.362 Y82.112 E.03613
G1 X133.256 Y82.806 E.03549
G1 X133.983 Y83.805 E.03874
G1 X145.846 Y104.369 E.74437
G1 X146.198 Y105.257 E.02995
G1 X146.33 Y106.295 E.03281
G1 X146.202 Y107.258 E.03046
G1 X145.81 Y108.233 E.03295
G1 X133.973 Y128.745 E.74255
G1 X133.254 Y129.73 E.03824
G1 X132.301 Y130.455 E.03754
G1 X131.207 Y130.849 E.03646
G1 X130.074 Y130.941 E.03564
G1 X106.759 Y130.94 E.73103
G1 X105.662 Y130.84 E.03454
G1 X104.629 Y130.461 E.0345
G1 X103.68 Y129.744 E.03729
G1 X102.95 Y128.748 E.03872
G1 X91.098 Y108.212 E.74343
G1 X90.723 Y107.276 E.03162
G1 X90.591 Y106.264 E.032
G1 X90.718 Y105.276 E.03123
G1 X91.111 Y104.301 E.03296
G1 X102.943 Y83.797 E.74225
G1 X103.488 Y83.037 E.02932
M204 S1000
G1 X103.792 Y83.253 F10800
M204 S800
G1 F1200
G1 X103.885 Y83.121 E.00506
G1 X104.671 Y82.482 E.03176
G1 X105.618 Y82.092 E.03211
G1 X106.764 Y81.97 E.03614
G1 X130.654 Y81.987 E.74905
G1 X131.189 Y82.065 E.01695
G1 X132.164 Y82.432 E.03266
G1 X132.975 Y83.058 E.03212
G1 X133.333 Y83.486 E.0175
G1 X145.501 Y104.522 E.76196
G1 X145.831 Y105.347 E.02786
G1 X145.953 Y106.28 E.0295
G1 X145.835 Y107.17 E.02815
G1 X145.474 Y108.063 E.0302
G1 X133.652 Y128.546 E.74152
G1 X132.992 Y129.459 E.03532
G1 X132.132 Y130.117 E.03395
G1 X131.12 Y130.482 E.03373
G1 X130.071 Y130.564 E.03299
G1 X106.769 Y130.563 E.73062
G1 X105.732 Y130.469 E.03265
M73 P1 R65
M73 Q1 S66
G1 X104.8 Y130.125 E.03115
G1 X103.94 Y129.471 E.03388
G1 X103.27 Y128.549 E.03574
G1 X91.431 Y108.035 E.74263
G1 X91.089 Y107.186 E.0287
G1 X90.968 Y106.254 E.02947
G1 X91.085 Y105.364 E.02815
G1 X91.447 Y104.471 E.03021
G1 X103.264 Y83.994 E.74128
G1 X103.757 Y83.302 E.02664
M204 S1000
G1 X104.061 Y83.516 F10800
M204 S800
G1 F1200
G1 X104.151 Y83.389 E.00488
G1 X104.849 Y82.815 E.02833
G1 X105.72 Y82.456 E.02954
G1 X106.776 Y82.347 E.03329
G1 X130.121 Y82.347 E.73197
G1 X131.119 Y82.436 E.03142
G1 X131.965 Y82.753 E.02833
G1 X132.711 Y83.327 E.02951
G1 X133.333 Y84.189 E.03333
G1 X145.157 Y104.676 E.74166
G1 X145.465 Y105.439 E.0258
G1 X145.576 Y106.264 E.0261
G1 X145.469 Y107.081 E.02584
G1 X145.137 Y107.891 E.02745
G1 X133.331 Y128.349 E.74059
G1 X132.728 Y129.189 E.03242
G1 X131.963 Y129.78 E.03031
G1 X131.034 Y130.115 E.03096
G1 X130.069 Y130.187 E.03034
G1 X106.779 Y130.186 E.73024
G1 X105.802 Y130.098 E.03076
G1 X104.972 Y129.789 E.02777
G1 X104.201 Y129.198 E.03046
G1 X103.591 Y128.352 E.0327
G1 X91.764 Y107.858 E.7419
G1 X91.456 Y107.095 E.0258
G1 X91.345 Y106.269 E.02613
G1 X91.452 Y105.453 E.0258
G1 X91.783 Y104.642 E.02746
G1 X103.586 Y84.191 E.74036
G1 X104.027 Y83.565 E.02401
M204 S1000
G1 X104.334 Y83.781 F10800
M204 S800
G1 F1200
G1 X104.436 Y83.636 E.00556
G1 X105.05 Y83.134 E.02487
G1 X105.819 Y82.819 E.02606
G1 X106.779 Y82.724 E.03025
G1 X130.118 Y82.725 E.73178
G1 X131.047 Y82.806 E.02924
G1 X131.789 Y83.087 E.02488
G1 X132.446 Y83.596 E.02606
G1 X133.009 Y84.38 E.03026
G1 X144.824 Y104.853 E.74114
G1 X145.099 Y105.53 E.02291
G1 X145.199 Y106.249 E.02276
G1 X145.103 Y106.991 E.02346
G1 X144.802 Y107.719 E.0247
G1 X133.01 Y128.151 E.73967
G1 X132.464 Y128.919 E.02955
G1 X131.794 Y129.443 E.02667
G1 X130.95 Y129.747 E.02813
G1 X130.068 Y129.81 E.02772
G1 X106.782 Y129.809 E.73012
G1 X105.874 Y129.728 E.02858
G1 X105.145 Y129.454 E.02442
G1 X104.463 Y128.926 E.02704
G1 X103.913 Y128.154 E.02972
G1 X92.097 Y107.681 E.74116
G1 X91.822 Y107.004 E.02291
G1 X91.722 Y106.285 E.02276
G1 X91.818 Y105.543 E.02346
G1 X92.119 Y104.814 E.02473
G1 X103.911 Y84.382 E.73967
G1 X104.299 Y83.83 E.02116
M204 S1000
G1 X104.607 Y84.046 F10800
M204 S800
G1 F1200
G1 X104.721 Y83.884 E.00621
G1 X105.25 Y83.454 E.02137
G1 X105.918 Y83.184 E.02259
G1 X106.782 Y83.102 E.02721
G1 X130.115 Y83.102 E.73159
G1 X130.974 Y83.176 E.02703
G1 X131.611 Y83.42 E.02139
G1 X132.18 Y83.863 E.02261
G1 X132.684 Y84.571 E.02725
G1 X144.491 Y105.031 E.74066
G1 X144.733 Y105.621 E.01999
M73 Q1 S65
G1 X144.822 Y106.259 E.0202
G1 X144.737 Y106.898 E.02021
G1 X144.467 Y107.547 E.02204
G1 X132.685 Y127.96 E.73899
G1 X132.2 Y128.65 E.02644
G1 X131.623 Y129.106 E.02306
G1 X130.867 Y129.379 E.0252
G1 X130.066 Y129.433 E.02517
G1 X106.785 Y129.432 E.72996
G1 X105.946 Y129.357 E.02641
G1 X105.319 Y129.119 E.02103
G1 X104.744 Y128.675 E.02278
G1 X104.238 Y127.963 E.02739
G1 X92.43 Y107.503 E.74068
G1 X92.188 Y106.912 E.02002
G1 X92.099 Y106.275 E.02017
G1 X92.184 Y105.635 E.02024
G1 X92.454 Y104.987 E.02201
G1 X104.236 Y84.573 E.73902
G1 X104.572 Y84.095 E.01832
M204 S1000
G1 X104.879 Y84.311 F10800
M204 S800
G1 F1200
G1 X105.004 Y84.134 E.00679
G1 X105.447 Y83.776 E.01786
G1 X105.992 Y83.553 E.01846
G1 X106.786 Y83.479 E.025
G1 X130.56 Y83.493 E.74542
G1 X131.25 Y83.662 E.02227
G1 X131.732 Y83.959 E.01775
G1 X132.359 Y84.763 E.03197
G1 X144.158 Y105.209 E.74016
G1 X144.366 Y105.713 E.0171
G1 X144.445 Y106.242 E.01677
G1 X144.372 Y106.804 E.01777
G1 X144.132 Y107.373 E.01936
G1 X132.36 Y127.769 E.73838
G1 X131.917 Y128.4 E.02417
G1 X131.451 Y128.771 E.01868
G1 X130.784 Y129.011 E.02223
G1 X130.065 Y129.055 E.02259
G1 X106.788 Y129.055 E.72983
G1 X106.021 Y128.987 E.02414
G1 X105.495 Y128.785 E.01767
G1 X105.025 Y128.422 E.01862
G1 X104.562 Y127.771 E.02505
G1 X92.763 Y107.325 E.74016
G1 X92.554 Y106.821 E.01711
G1 X92.476 Y106.291 E.0168
G1 X92.549 Y105.73 E.01774
G1 X92.789 Y105.161 E.01936
G1 X104.561 Y84.765 E.73838
G1 X104.845 Y84.36 E.01551
M204 S1000
; printing object 2HU.stl id:0 copy 0
;WIPE_START
G1 F8640
G1 X104.879 Y84.311 E-.01377
G1 X105.004 Y84.134 E-.05003
G1 X105.447 Y83.776 E-.13152
G1 X105.992 Y83.553 E-.13597
G1 X106.786 Y83.479 E-.18413
G1 X108.018 Y83.48 E-.28458
;WIPE_END
G1 Z.6 F720
G1 X135.246 Y80.253 F10800
G1 Z.2 F720
G1 E.8 F2100
M204 S800
;TYPE:Support material
G1 F1200
G1 X137.553 Y80.253 E.07233
G1 X137.553 Y84.867 E.14467
G1 X139.861 Y84.867 E.07237
G1 X139.861 Y87.174 E.07233
G1 X142.168 Y87.174 E.07233
G1 X142.168 Y91.788 E.14467
G1 X144.475 Y91.788 E.07233
G1 X144.475 Y96.402 E.14467
G1 X146.782 Y96.402 E.07233
G1 X146.782 Y101.016 E.14467
G1 X149.089 Y101.016 E.07233
G1 X149.089 Y111.517 E.32925
G1 X146.782 Y111.517 E.07233
G1 X146.782 Y116.132 E.1447
G1 X144.475 Y116.132 E.07233
G1 X144.475 Y120.746 E.14467
G1 X142.168 Y120.746 E.07233
G1 X142.168 Y125.36 E.14467
G1 X139.861 Y125.36 E.07233
G1 X139.861 Y127.667 E.07233
G1 X137.553 Y127.667 E.07237
G1 X137.553 Y132.281 E.14467
G1 X135.246 Y132.281 E.07233
M73 P2 R65
M73 Q2 S65
G1 X135.246 Y134.588 E.07233
G1 X101.675 Y134.588 E1.0526
G1 X101.675 Y132.281 E.07233
G1 X99.367 Y132.281 E.07237
G1 X99.367 Y127.667 E.14467
G1 X97.06 Y127.667 E.07233
G1 X97.06 Y125.36 E.07233
G1 X94.753 Y125.36 E.07233
G1 X94.753 Y120.746 E.14467
G1 X92.446 Y120.746 E.07233
G1 X92.446 Y116.132 E.14467
G1 X90.139 Y116.132 E.07233
G1 X90.139 Y111.517 E.1447
G1 X87.832 Y111.517 E.07233
G1 X87.832 Y101.016 E.32925
G1 X90.139 Y101.016 E.07233
G1 X90.139 Y96.402 E.14467
G1 X92.446 Y96.402 E.07233
G1 X92.446 Y91.788 E.14467
G1 X94.753 Y91.788 E.07233
G1 X94.753 Y87.174 E.14467
G1 X97.06 Y87.174 E.07233
G1 X97.06 Y84.867 E.07233
G1 X99.367 Y84.867 E.07233
G1 X99.367 Y80.253 E.14467
G1 X101.675 Y80.253 E.07237
G1 X101.675 Y77.946 E.07233
G1 X135.246 Y77.946 E1.0526
G1 X135.246 Y80.196 E.07055
M204 S1000
G1 X106.856 Y80.257 F10800
M204 S800
G1 F1200
G1 X130.483 Y80.263 E.74081
G1 X131.813 Y80.456 E.04214
G1 X132.438 Y80.667 E.02068
G1 X133.156 Y81.03 E.02523
G1 X134.08 Y81.741 E.03656
G1 X134.998 Y82.9 E.04636
G1 X147.052 Y103.791 E.75624
G1 X147.534 Y105.104 E.04385
G1 X147.664 Y106.375 E.04006
G1 X147.51 Y107.53 E.03653
G1 X147.064 Y108.718 E.03979
G1 X134.97 Y129.681 E.75882
G1 X134.446 Y130.402 E.02795
G1 X134.004 Y130.864 E.02005
G1 X133.401 Y131.347 E.02422
G1 X132.8 Y131.701 E.02187
G1 X131.613 Y132.129 E.03956
G1 X130.427 Y132.272 E.03746
G1 X106.856 Y132.277 E.73905
G1 X105.378 Y132.144 E.04653
G1 X104.04 Y131.66 E.04461
G1 X103.356 Y131.229 E.02535
G1 X102.841 Y130.793 E.02116
G1 X101.961 Y129.696 E.04409
G1 X89.869 Y108.742 E.75855
G1 X89.431 Y107.609 E.03809
G1 X89.259 Y106.474 E.03599
G1 X89.368 Y105.189 E.04043
G1 X89.779 Y103.975 E.04019
G1 X101.795 Y83.114 E.75483
G1 X102.223 Y82.451 E.02474
G1 X102.784 Y81.797 E.02702
G1 X103.279 Y81.363 E.02064
G1 X103.952 Y80.921 E.02525
G1 X105.308 Y80.405 E.04549
G1 X106.799 Y80.257 E.04698
M204 S1000
;WIPE_START
G1 F8640
G1 X105.308 Y80.405 E-.34597
G1 X103.952 Y80.921 E-.33501
G1 X103.521 Y81.204 E-.11902
;WIPE_END
G1 Z.6 F720
G1 X148.627 Y111.348 F10800
G1 Z.2 F720
G1 E.8 F2100
M204 S800
G1 F1200
G1 X148.627 Y101.356 E.31329
G1 X148.208 Y101.356 E.01314
G1 X148.208 Y111.178 E.30796
G1 X147.789 Y111.178 E.01314
G1 X147.789 Y107.796 E.10604
G1 X147.37 Y108.865 E.036
G1 X147.37 Y111.178 E.07252
G1 X146.951 Y111.178 E.01314
G1 X146.951 Y109.619 E.04888
G1 X146.532 Y110.344 E.02626
G1 X146.532 Y111.178 E.02615
M73 P2 R64
G1 X146.442 Y111.178 E.00282
G1 X146.442 Y115.792 E.14467
G1 X146.113 Y115.792 E.01032
G1 X146.113 Y111.07 E.14805
G1 X145.694 Y111.796 E.02628
G1 X145.694 Y115.792 E.12529
G1 X145.275 Y115.792 E.01314
G1 X145.275 Y112.522 E.10253
G1 X144.856 Y113.247 E.02626
G1 X144.856 Y115.792 E.0798
G1 X144.437 Y115.792 E.01314
G1 X144.437 Y113.973 E.05703
G1 X144.018 Y114.699 E.02628
G1 X144.018 Y120.406 E.17894
G1 X143.599 Y120.406 E.01314
G1 X143.599 Y115.424 E.15621
G1 X143.18 Y116.15 E.02628
G1 X143.18 Y120.406 E.13344
G1 X142.761 Y120.406 E.01314
G1 X142.761 Y116.876 E.11068
G1 X142.342 Y117.601 E.02626
G1 X142.342 Y120.406 E.08795
G1 X141.923 Y120.406 E.01314
G1 X141.923 Y118.327 E.06519
G1 X141.504 Y119.053 E.02628
G1 X141.504 Y125.021 E.18712
G1 X141.085 Y125.021 E.01314
G1 X141.085 Y119.778 E.16439
G1 X140.666 Y120.504 E.02628
G1 X140.666 Y125.021 E.14163
G1 X140.247 Y125.021 E.01314
G1 X140.247 Y121.23 E.11886
G1 X139.828 Y121.955 E.02626
G1 X139.828 Y125.021 E.09613
G1 X139.521 Y125.021 E.00963
G1 X139.521 Y127.328 E.07233
G1 X139.409 Y127.328 E.00351
G1 X139.409 Y122.681 E.1457
G1 X138.99 Y123.407 E.02628
G1 X138.99 Y127.328 E.12294
G1 X138.571 Y127.328 E.01314
G1 X138.571 Y124.133 E.10018
G1 X138.152 Y124.858 E.02626
G1 X138.152 Y127.328 E.07745
G1 X137.733 Y127.328 E.01314
G1 X137.733 Y125.584 E.05468
G1 X137.314 Y126.31 E.02628
G1 X137.314 Y127.328 E.03192
G1 X137.214 Y127.328 E.00314
G1 X137.214 Y131.942 E.14467
G1 X136.895 Y131.942 E.01
G1 X136.895 Y127.035 E.15386
G1 X136.476 Y127.761 E.02628
G1 X136.476 Y131.942 E.13109
G1 X136.057 Y131.942 E.01314
G1 X136.057 Y128.487 E.10833
G1 X135.638 Y129.212 E.02626
G1 X135.638 Y131.942 E.0856
G1 X135.219 Y131.942 E.01314
G1 X135.219 Y129.92 E.0634
G1 X134.801 Y130.504 E.02252
G1 X134.801 Y134.249 E.11742
G1 X134.382 Y134.249 E.01314
G1 X134.382 Y130.972 E.10275
G1 X133.963 Y131.349 E.01767
G1 X133.963 Y134.249 E.09093
G1 X133.544 Y134.249 E.01314
G1 X133.544 Y131.659 E.08121
G1 X133.125 Y131.914 E.01538
G1 X133.125 Y134.249 E.07321
G1 X132.706 Y134.249 E.01314
G1 X132.706 Y132.12 E.06675
G1 X132.287 Y132.285 E.01412
G1 X132.287 Y134.249 E.06158
G1 X131.868 Y134.249 E.01314
G1 X131.868 Y132.413 E.05757
G1 X131.449 Y132.508 E.01347
G1 X131.449 Y134.249 E.05459
G1 X131.03 Y134.249 E.01314
G1 X131.03 Y132.571 E.05261
G1 X130.611 Y132.605 E.01318
G1 X130.611 Y134.249 E.05155
G1 X130.192 Y134.249 E.01314
G1 X130.192 Y132.616 E.0512
G1 X129.773 Y132.616 E.01314
G1 X129.773 Y134.249 E.0512
G1 X129.354 Y134.249 E.01314
G1 X129.354 Y132.616 E.0512
G1 X128.935 Y132.616 E.01314
G1 X128.935 Y134.249 E.0512
G1 X128.516 Y134.249 E.01314
G1 X128.516 Y132.616 E.0512
G1 X128.097 Y132.616 E.01314
G1 X128.097 Y134.249 E.0512
G1 X127.678 Y134.249 E.01314
G1 X127.678 Y132.616 E.0512
G1 X127.259 Y132.616 E.01314
G1 X127.259 Y134.249 E.0512
G1 X126.84 Y134.249 E.01314
G1 X126.84 Y132.616 E.0512
G1 X126.421 Y132.616 E.01314
G1 X126.421 Y134.249 E.0512
G1 X126.002 Y134.249 E.01314
G1 X126.002 Y132.616 E.0512
G1 X125.583 Y132.616 E.01314
G1 X125.583 Y134.249 E.0512
G1 X125.164 Y134.249 E.01314
G1 X125.164 Y132.616 E.0512
G1 X124.745 Y132.616 E.01314
G1 X124.745 Y134.249 E.0512
G1 X124.326 Y134.249 E.01314
G1 X124.326 Y132.616 E.0512
G1 X123.907 Y132.616 E.01314
G1 X123.907 Y134.249 E.0512
G1 X123.488 Y134.249 E.01314
G1 X123.488 Y132.616 E.0512
G1 X123.069 Y132.616 E.01314
G1 X123.069 Y134.249 E.0512
G1 X122.65 Y134.249 E.01314
