; generated by PrusaSlicer 2.7.0+win64 on 2023-11-26 at 17:42:37 UTC


;
;

;
;

;
;

;
;
; 

; external perimeters extrusion width = 0.45mm
; perimeters extrusion width = 0.45mm
; infill extrusion width = 0.45mm
; solid infill extrusion width = 0.45mm
; top infill extrusion width = 0.42mm
; support material extrusion width = 0.36mm
; first layer extrusion width = 0.50mm

M73 P0 R30
M201 X4000 Y4000 Z200 E2500 ; sets maximum accelerations, mm/sec^2
M203 X300 Y300 Z40 E100 ; sets maximum feedrates, mm / sec
M204 P4000 R1200 T4000 ; sets acceleration (P, T) and retract acceleration (R), mm/sec^2
M205 X8.00 Y8.00 Z2.00 E10.00 ; sets the jerk limits, mm/sec
M205 S0 T0 ; sets the minimum extruding and travel feed rate, mm/sec

; printing object 2HU.stl id:0 copy 0
; stop printing object 2HU.stl id:0 copy 0

;TYPE:Custom
M17 ; enable steppers
M862.1 P0.4 ; nozzle diameter check
M862.3 P "MK4" ; printer model check
M862.5 P2 ; g-code level check
M862.6 P"Input shaper" ; FW feature check
M115 U5.0.0+12061

M555 X89.6636 Y76.6669 W57.5937 H55.2

G90 ; use absolute coordinates
M83 ; extruder relative mode

M140 S60 ; set bed temp
M104 T0 S170 ; set extruder temp for bed leveling
M109 T0 R170 ; wait for temp

M84 E ; turn off E motor

G28 ; home all without mesh bed level

G1 X42 Y-4 Z5 F4800

M302 S160 ; lower cold extrusion limit to 160C


G1 E-2 F2400 ; retraction


M84 E ; turn off E motor

G29 P9 X10 Y-4 W32 H4

M106 S100

G0 Z40 F10000

M190 S60 ; wait for bed temp

M107

;
; MBL
;
M84 E ; turn off E motor
G29 P1 ; invalidate mbl & probe print area
G29 P1 X0 Y0 W50 H20 C ; probe near purge place
G29 P3.2 ; interpolate mbl probes
G29 P3.13 ; extrapolate mbl outside probe area
G29 A ; activate mbl

; prepare for purge
M104 S230
G0 X0 Y-4 Z15 F4800 ; move away and ready for the purge
M109 S230

G92 E0
M569 S0 E ; set spreadcycle mode for extruder

;
; Extrude purge line
;
G92 E0 ; reset extruder position
G1 E2 F2400 ; deretraction after the initial one before nozzle cleaning
G0 E7 X15 Z0.2 F500 ; purge
G0 X25 E4 F500 ; purge
G0 X35 E4 F650 ; purge
G0 X45 E4 F800 ; purge
G0 X48 Z0.05 F8000 ; wipe, move close to the bed
G0 X51 Z0.2 F8000 ; wipe, move quickly away from the bed

G92 E0
M221 S100 ; set flow to 100%
G21 ; set units to millimeters
G90 ; use absolute coordinates
M83 ; use relative distances for extrusion
M900 K0.05 ; Filament gcode


M572 S0.038 ; Filament gcode


M142 S36 ; set heatbreak target temp
M107
;LAYER_CHANGE
;Z:0.2
;HEIGHT:0.2
;BEFORE_LAYER_CHANGE
G92 E0.0
;0.2
M201 X4000 Y4000
M74 W0

G1 E-.7 F2100
G1 Z.2 F720
;AFTER_LAYER_CHANGE
;0.2
G1 X102.897 Y83.048 F18000
G1 Z.2 F720
G1 E.7 F2100
M204 P500
;TYPE:Skirt/Brim
;WIDTH:0.5
G1 F2400
G1 X103.319 Y82.53 E.02539
G1 X103.801 Y82.092 E.02475
G1 X104.297 Y81.755 E.02279
G1 X104.844 Y81.488 E.02313
G1 X105.407 Y81.303 E.02252
G1 X106.067 Y81.186 E.02548
G1 X106.726 Y81.154 E.02508
G1 X130.782 Y81.179 E.91428
G1 X131.407 Y81.277 E.02404
M73 P0 R29
G1 X132.035 Y81.472 E.02499
G1 X132.607 Y81.745 E.02409
G1 X133.135 Y82.104 E.02427
G1 X133.575 Y82.502 E.02255
G1 X134.001 Y83.016 E.02537
G1 X146.26 Y104.211 E.93058
G1 X146.634 Y105.193 E.03994
G1 X146.739 Y105.758 E.02184
G1 X146.77 Y106.319 E.02135
G1 X146.63 Y107.36 E.03992
G1 X146.419 Y107.977 E.02478
G1 X146.202 Y108.434 E.01923
G1 X134.345 Y128.979 E.90155
G1 X134.003 Y129.515 E.02416
G1 X133.569 Y130.037 E.0258
G1 X133.048 Y130.497 E.02641
G1 X132.497 Y130.849 E.02485
G1 X131.919 Y131.107 E.02406
G1 X131.31 Y131.277 E.02403
G1 X130.076 Y131.381 E.04707
G1 X106.744 Y131.38 E.88676
G1 X106.137 Y131.355 E.02309
G1 X105.548 Y131.265 E.02265
G1 X104.887 Y131.062 E.02628
G1 X104.43 Y130.854 E.01908
G1 X103.867 Y130.492 E.02544
G1 X103.361 Y130.047 E.02561
G1 X102.916 Y129.512 E.02645
G1 X102.577 Y128.983 E.02388
G1 X90.696 Y108.39 E.90358
G1 X90.298 Y107.383 E.04115
G1 X90.187 Y106.82 E.02181
G1 X90.151 Y106.262 E.02125
G1 X90.194 Y105.669 E.0226
G1 X90.29 Y105.175 E.01913
G1 X90.502 Y104.557 E.02483
G1 X90.719 Y104.1 E.01923
G1 X102.57 Y83.563 E.90117
G1 X102.865 Y83.098 E.02093
M204 P4000
M204 T4000
G1 X103.251 Y83.342 F18000
M204 P500
G1 F2400
G1 X103.261 Y83.324 E.00078
G1 X103.641 Y82.856 E.02291
G1 X104.074 Y82.46 E.0223
G1 X104.512 Y82.158 E.02022
G1 X105.029 Y81.906 E.02186
G1 X105.532 Y81.743 E.0201
G1 X106.13 Y81.639 E.02307
G1 X106.742 Y81.611 E.02328
G1 X130.144 Y81.611 E.88942
G1 X130.726 Y81.633 E.02214
G1 X131.288 Y81.718 E.0216
G1 X131.884 Y81.904 E.02373
G1 X132.365 Y82.133 E.02025
G1 X132.842 Y82.455 E.02187
G1 X133.235 Y82.808 E.02008
G1 X133.624 Y83.274 E.02307
G1 X133.968 Y83.814 E.02433
G1 X145.848 Y104.409 E.90363
G1 X146.188 Y105.293 E.036
G1 X146.284 Y105.798 E.01954
G1 X146.312 Y106.328 E.02017
G1 X146.185 Y107.255 E.03556
G1 X145.793 Y108.228 E.03987
G1 X133.957 Y128.738 E.9
G1 X133.641 Y129.235 E.02238
G1 X133.251 Y129.708 E.0233
G1 X132.785 Y130.123 E.02372
G1 X132.293 Y130.44 E.02224
G1 X131.779 Y130.671 E.02142
G1 X131.203 Y130.833 E.02274
G1 X130.073 Y130.924 E.04309
G1 X106.757 Y130.923 E.88616
G1 X105.666 Y130.823 E.04164
G1 X105.037 Y130.63 E.02501
G1 X104.637 Y130.446 E.01673
G1 X104.13 Y130.118 E.02295
G1 X103.678 Y129.717 E.02296
G1 X103.278 Y129.233 E.02386
G1 X102.966 Y128.742 E.02211
G1 X91.106 Y108.188 E.9019
G1 X90.743 Y107.279 E.0372
G1 X90.639 Y106.747 E.0206
G1 X90.608 Y106.251 E.01889
G1 X90.735 Y105.28 E.03722
G1 X91.127 Y104.306 E.0399
G1 X102.959 Y83.803 E.89969
G1 X103.219 Y83.392 E.01848
M204 P4000
G1 X103.612 Y83.673 F18000
M204 P500
G1 F2400
G1 X103.962 Y83.181 E.02295
G1 X104.371 Y82.807 E.02106
G1 X104.728 Y82.561 E.01648
G1 X105.214 Y82.325 E.02053
G1 X105.655 Y82.183 E.01761
G1 X106.192 Y82.092 E.0207
G1 X106.756 Y82.068 E.02145
G1 X130.673 Y82.087 E.909
G1 X131.17 Y82.16 E.01909
M73 P1 R29
G1 X131.733 Y82.335 E.02241
G1 X132.124 Y82.521 E.01646
G1 X132.572 Y82.824 E.02056
G1 X132.915 Y83.135 E.0176
G1 X133.262 Y83.554 E.02068
G1 X145.436 Y104.608 E.92433
G1 X145.742 Y105.394 E.03206
G1 X145.855 Y106.307 E.03496
G1 X145.741 Y107.148 E.03226
G1 X145.386 Y108.021 E.03582
G1 X133.568 Y128.498 E.89857
G1 X133.277 Y128.958 E.02069
G1 X132.933 Y129.38 E.02069
G1 X132.52 Y129.75 E.02107
G1 X132.089 Y130.031 E.01955
G1 X131.608 Y130.247 E.02004
G1 X131.099 Y130.387 E.02006
G1 X130.071 Y130.467 E.03919
G1 X106.769 Y130.466 E.88562
G1 X105.751 Y130.374 E.03885
G1 X104.845 Y130.038 E.03673
G1 X104.42 Y129.764 E.01922
G1 X103.995 Y129.388 E.02157
G1 X103.641 Y128.955 E.02126
G1 X103.355 Y128.502 E.02036
G1 X91.516 Y107.986 E.90025
G1 X91.188 Y107.174 E.03328
G1 X91.065 Y106.269 E.03471
G1 X91.18 Y105.387 E.03381
G1 X91.535 Y104.513 E.03585
G1 X103.349 Y84.042 E.89829
G1 X103.577 Y83.721 E.01496
M204 P4000
G1 X103.948 Y83.983 F18000
M204 P500
G1 F2400
G1 X104.285 Y83.506 E.0222
G1 X104.944 Y82.965 E.0324
G1 X105.399 Y82.743 E.01924
G1 X105.776 Y82.624 E.01503
G1 X106.769 Y82.525 E.03793
G1 X130.122 Y82.525 E.88756
G1 X131.084 Y82.61 E.0367
G1 X131.882 Y82.91 E.0324
G1 X132.302 Y83.193 E.01925
G1 X132.594 Y83.461 E.01506
G1 X133.181 Y84.279 E.03827
G1 X145.025 Y104.807 E.90074
G1 X145.296 Y105.498 E.02821
G1 X145.398 Y106.287 E.03024
G1 X145.297 Y107.039 E.02884
G1 X144.979 Y107.813 E.0318
G1 X133.178 Y128.259 E.89723
G1 X132.612 Y129.054 E.03709
G1 X132.253 Y129.378 E.01838
G1 X131.884 Y129.622 E.01681
G1 X131.437 Y129.823 E.01863
G1 X130.996 Y129.942 E.01736
G1 X130.068 Y130.01 E.03536
G1 X106.781 Y130.009 E.88505
G1 X105.836 Y129.924 E.03606
G1 X105.054 Y129.632 E.03173
G1 X104.71 Y129.411 E.01554
G1 X104.313 Y129.058 E.02019
G1 X103.745 Y128.263 E.03713
G1 X91.925 Y107.783 E.89871
G1 X91.633 Y107.068 E.02935
G1 X91.522 Y106.286 E.03002
G1 X91.624 Y105.495 E.03031
G1 X91.942 Y104.721 E.0318
G1 X103.739 Y84.281 E.89695
G1 X103.914 Y84.032 E.01157
M204 P4000
G1 X104.286 Y84.294 F18000
M204 P500
G1 F2400
G1 X104.63 Y83.806 E.02269
G1 X105.186 Y83.353 E.02726
G1 X105.895 Y83.066 E.02907
G1 X106.782 Y82.982 E.03386
G1 X130.118 Y82.982 E.88692
G1 X130.997 Y83.059 E.03354
G1 X131.667 Y83.314 E.02725
G1 X132.27 Y83.784 E.02906
G1 X132.787 Y84.511 E.0339
G1 X144.614 Y105.008 E.8994
G1 X144.851 Y105.602 E.02431
G1 X144.941 Y106.295 E.02656
G1 X144.853 Y106.927 E.02425
G1 X144.572 Y107.603 E.02782
G1 X132.788 Y128.021 E.89598
G1 X132.291 Y128.728 E.03285
G1 X131.677 Y129.214 E.02976
G1 X131.299 Y129.387 E.0158
G1 X130.894 Y129.496 E.01594
G1 X130.066 Y129.553 E.03154
G1 X106.784 Y129.552 E.88486
G1 X105.924 Y129.475 E.03282
G1 X105.264 Y129.226 E.02681
G1 X104.654 Y128.754 E.02931
G1 X104.134 Y128.023 E.03409
G1 X92.326 Y107.564 E.89779
G1 X92.078 Y106.962 E.02475
G1 X91.979 Y106.273 E.02646
G1 X92.068 Y105.606 E.02557
G1 X92.349 Y104.93 E.02782
G1 X104.133 Y84.513 E.89595
G1 X104.252 Y84.343 E.00789
M204 P4000
G1 X104.625 Y84.605 F18000
M204 P500
G1 F2400
G1 X104.973 Y84.108 E.02306
G1 X105.425 Y83.742 E.0221
G1 X105.985 Y83.514 E.02298
G1 X106.786 Y83.439 E.03058
G1 X130.107 Y83.439 E.88635
G1 X130.907 Y83.507 E.03051
G1 X131.45 Y83.716 E.02211
G1 X131.927 Y84.087 E.02297
G1 X132.393 Y84.743 E.03058
G1 X144.203 Y105.208 E.89802
G1 X144.406 Y105.705 E.0204
G1 X144.484 Y106.272 E.02175
G1 X144.41 Y106.813 E.02075
G1 X144.167 Y107.393 E.0239
G1 X132.395 Y127.789 E.89503
G1 X131.948 Y128.426 E.02958
G1 X131.468 Y128.807 E.02329
G1 X130.793 Y129.05 E.02727
G1 X130.065 Y129.095 E.02772
G1 X106.788 Y129.095 E.88467
G1 X106.014 Y129.027 E.02953
G1 X105.477 Y128.821 E.02186
G1 X104.994 Y128.448 E.02319
G1 X104.528 Y127.791 E.03061
G1 X92.728 Y107.344 E.89724
G1 X92.523 Y106.856 E.02012
G1 X92.436 Y106.293 E.02165
G1 X92.51 Y105.721 E.02192
G1 X92.754 Y105.141 E.02391
G1 X104.526 Y84.745 E.89503
G1 X104.59 Y84.654 E.00423
M204 P4000
; printing object 2HU.stl id:0 copy 0
G1 E-.7 F2100
G1 X104.59 Y84.654 Z.4 F18014.394
G1 X126.572 Y91.977 F18000
G1 Z.2 F720
G1 E.7 F2100
M204 P500
;TYPE:Support material
G1 F2400
G1 X126.708 Y92.012 E.00534
G1 X126.826 Y92.175 E.00765
G1 X134.847 Y106.068 E.6097
G1 X134.93 Y106.268 E.00823
G1 X134.847 Y106.466 E.00816
G1 X126.694 Y120.531 E.61788
G1 X110.224 Y120.529 E.62596
G1 X102.074 Y106.466 E.61775
G1 X101.991 Y106.265 E.00826
G1 X102.073 Y106.068 E.00811
G1 X110.227 Y92.003 E.61789
G1 X126.503 Y91.976 E.61859
M73 P2 R29
M204 P4000
G1 X134.458 Y106.728 F18000
M204 P500
G1 F2400
G1 X134.458 Y106.217 E.01942
G1 X133.887 Y105.227 E.04344
G1 X133.887 Y107.307 E.07905
G1 X133.315 Y108.296 E.04342
G1 X133.315 Y104.238 E.15423
G1 X132.744 Y103.248 E.04344
G1 X132.744 Y109.286 E.22948
G1 X132.173 Y110.275 E.0434
G1 X132.173 Y102.258 E.3047
G1 X131.601 Y101.269 E.04342
G1 X131.601 Y111.265 E.37991
G1 X131.03 Y112.255 E.04344
G1 X131.03 Y100.279 E.45516
G1 X130.459 Y99.29 E.0434
G1 X130.459 Y113.244 E.53034
G1 X129.887 Y114.234 E.04346
G1 X129.887 Y98.3 E.60559
G1 X129.316 Y97.31 E.04344
G1 X129.316 Y115.223 E.68081
G1 X128.745 Y116.213 E.04344
G1 X128.745 Y96.321 E.75602
G1 X128.173 Y95.331 E.04346
G1 X128.173 Y117.203 E.83127
G1 X127.602 Y118.192 E.0434
G1 X127.602 Y94.342 E.90645
G1 X127.031 Y93.352 E.04344
G1 X127.031 Y119.182 E.9817
G1 X126.459 Y120.146 E.0426
G1 X126.459 Y92.387 E1.05502
G1 X125.888 Y92.387 E.0217
G1 X125.888 Y120.146 E1.05502
G1 X125.317 Y120.146 E.0217
G1 X125.317 Y92.387 E1.05502
G1 X124.745 Y92.387 E.02174
G1 X124.745 Y120.146 E1.05502
G1 X124.174 Y120.146 E.0217
G1 X124.174 Y92.387 E1.05502
G1 X123.603 Y92.387 E.0217
G1 X123.603 Y120.146 E1.05502
G1 X123.031 Y120.146 E.02174
G1 X123.031 Y92.387 E1.05502
G1 X122.46 Y92.387 E.0217
G1 X122.46 Y120.146 E1.05502
G1 X121.889 Y120.146 E.0217
G1 X121.889 Y92.387 E1.05502
G1 X121.317 Y92.387 E.02174
G1 X121.317 Y120.146 E1.05502
G1 X120.746 Y120.146 E.0217
G1 X120.746 Y92.387 E1.05502
G1 X120.174 Y92.387 E.02174
G1 X120.174 Y120.146 E1.05502
G1 X119.603 Y120.146 E.0217
G1 X119.603 Y92.387 E1.05502
G1 X119.032 Y92.387 E.0217
G1 X119.032 Y120.146 E1.05502
G1 X118.46 Y120.146 E.02174
G1 X118.46 Y92.387 E1.05502
G1 X117.889 Y92.387 E.0217
M73 P3 R29
G1 X117.889 Y120.146 E1.05502
G1 X117.318 Y120.146 E.0217
G1 X117.318 Y92.387 E1.05502
G1 X116.746 Y92.387 E.02174
G1 X116.746 Y120.146 E1.05502
G1 X116.175 Y120.146 E.0217
G1 X116.175 Y92.387 E1.05502
G1 X115.604 Y92.387 E.0217
G1 X115.604 Y120.146 E1.05502
G1 X115.032 Y120.146 E.02174
G1 X115.032 Y92.387 E1.05502
G1 X114.461 Y92.387 E.0217
G1 X114.461 Y120.146 E1.05502
G1 X113.89 Y120.146 E.0217
G1 X113.89 Y92.387 E1.05502
G1 X113.318 Y92.387 E.02174
G1 X113.318 Y120.146 E1.05502
G1 X112.747 Y120.146 E.0217
G1 X112.747 Y92.387 E1.05502
G1 X112.176 Y92.387 E.0217
G1 X112.176 Y120.146 E1.05502
G1 X111.604 Y120.146 E.02174
G1 X111.604 Y92.387 E1.05502
G1 X111.033 Y92.387 E.0217
G1 X111.033 Y120.146 E1.05502
G1 X110.462 Y120.146 E.0217
G1 X110.462 Y92.387 E1.05502
G1 X109.89 Y93.352 E.04264
G1 X109.89 Y119.182 E.9817
G1 X109.319 Y118.192 E.04344
G1 X109.319 Y94.342 E.90645
G1 X108.747 Y95.331 E.04342
G1 X108.747 Y117.203 E.83127
G1 X108.176 Y116.213 E.04344
G1 X108.176 Y96.321 E.75602
G1 X107.605 Y97.31 E.0434
G1 X107.605 Y115.223 E.68081
G1 X107.033 Y114.234 E.04342
G1 X107.033 Y98.3 E.60559
G1 X106.462 Y99.29 E.04344
M73 P3 R28
G1 X106.462 Y113.244 E.53034
G1 X105.891 Y112.255 E.0434
G1 X105.891 Y100.279 E.45516
G1 X105.319 Y101.269 E.04346
G1 X105.319 Y111.265 E.37991
G1 X104.748 Y110.275 E.04344
G1 X104.748 Y102.258 E.3047
G1 X104.177 Y103.248 E.04344
G1 X104.177 Y109.286 E.22948
G1 X103.605 Y108.296 E.04346
G1 X103.605 Y104.238 E.15423
G1 X103.034 Y105.227 E.0434
G1 X103.034 Y107.307 E.07905
G1 X102.463 Y106.317 E.04344
G1 X102.463 Y105.805 E.01946
M204 P4000
G1 E-.7 F2100
G1 X102.463 Y105.805 Z.4 F18014.394
G1 X143.398 Y106.038 F18000
G1 Z.2 F720
G1 E.7 F2100
M204 P500
;TYPE:Perimeter
;WIDTH:0.499999
G1 F2400
G1 X143.419 Y106.1 E.00249
G1 X143.423 Y106.404 E.01155
G1 X143.404 Y106.544 E.00537
G1 X143.247 Y106.914 E.01528
G1 X131.513 Y127.244 E.89213
G1 X131.177 Y127.724 E.02227
M73 P4 R28
G1 X130.883 Y127.937 E.0138
G1 X130.34 Y128.055 E.02112
G1 X106.82 Y128.06 E.89391
G1 X106.236 Y128.008 E.02228
G1 X105.978 Y127.907 E.01053
G1 X105.757 Y127.737 E.0106
G1 X105.408 Y127.244 E.02296
G1 X93.718 Y106.988 E.88886
G1 X93.573 Y106.688 E.01266
G1 X93.478 Y106.277 E.01603
G1 X93.517 Y105.99 E.01101
G1 X93.674 Y105.62 E.01528
G1 X105.408 Y85.29 E.89213
G1 X105.744 Y84.81 E.02227
G1 X105.961 Y84.637 E.01055
G1 X106.219 Y84.53 E.01062
G1 X106.82 Y84.474 E.02294
G1 X130.07 Y84.474 E.88365
G1 X130.686 Y84.526 E.0235
G1 X130.943 Y84.627 E.01049
G1 X131.164 Y84.797 E.0106
G1 X131.513 Y85.289 E.02293
G1 X143.272 Y105.665 E.89412
G1 X143.379 Y105.981 E.01268
M204 P4000
G1 X143.842 Y105.844 F18000
M204 P500
;TYPE:External perimeter
G1 F2400
G1 X143.904 Y106.253 E.01572
G1 X143.876 Y106.465 E.00813
G1 X143.849 Y106.665 E.00767
G1 X143.657 Y107.118 E.0187
G1 X131.899 Y127.49 E.89397
G1 X131.514 Y128.04 E.02552
G1 X131.289 Y128.219 E.01093
G1 X130.951 Y128.41 E.01476
G1 X130.38 Y128.512 E.02205
G1 X106.8 Y128.517 E.89619
G1 X106.131 Y128.458 E.02552
G1 X105.751 Y128.309 E.01551
G1 X105.424 Y128.057 E.01569
G1 X105.023 Y127.491 E.02636
G1 X93.295 Y107.171 E.89169
G1 X93.078 Y106.69 E.02006
G1 X93.017 Y106.281 E.01572
G1 X93.072 Y105.869 E.0158
G1 X93.264 Y105.416 E.0187
G1 X105.022 Y85.044 E.89397
G1 X105.407 Y84.494 E.02552
G1 X105.726 Y84.239 E.01552
G1 X106.108 Y84.082 E.0157
G1 X106.798 Y84.017 E.02634
G1 X130.089 Y84.017 E.8852
G1 X130.79 Y84.076 E.02674
G1 X131.17 Y84.225 E.01551
G1 X131.497 Y84.477 E.01569
G1 X131.898 Y85.042 E.02633
G1 X143.625 Y105.363 E.8917
G1 X143.818 Y105.789 E.01777
M204 P4000
G1 X143.892 Y106.182 F18000
G1 E-.7 F2100
G1 Z.4 F720
G1 X136.397 Y106.609 F18000
G1 Z.2 F720
G1 E.7 F2100
M204 P500
;TYPE:Perimeter
G1 F2400
G1 X136.386 Y106.703 E.0036
G1 X136.226 Y107.108 E.01655
G1 X128.069 Y121.237 E.62006
G1 X127.684 Y121.674 E.02213
G1 X127.492 Y121.817 E.0091
G1 X127.047 Y122.008 E.0184
G1 X126.488 Y122.075 E.0214
G1 X110.3 Y122.073 E.61525
G1 X109.73 Y121.958 E.0221
G1 X109.509 Y121.863 E.00914
G1 X109.101 Y121.549 E.01957
G1 X108.784 Y121.123 E.02018
G1 X100.692 Y107.103 E.61523
G1 X100.506 Y106.551 E.02214
