; generated by PrusaSlicer 2.7.0+win64 on 2023-11-26 at 17:37:01 UTC


;
;

;
;

;
;

;
;
; 

; external perimeters extrusion width = 0.45mm
; perimeters extrusion width = 0.45mm
; infill extrusion width = 0.45mm
; solid infill extrusion width = 0.45mm
; top infill extrusion width = 0.42mm
; support material extrusion width = 0.36mm
; first layer extrusion width = 0.50mm

M73 P0 R21
M201 X4000 Y4000 Z200 E2500 ; sets maximum accelerations, mm/sec^2
M203 X300 Y300 Z40 E100 ; sets maximum feedrates, mm / sec
M204 P4000 R1200 T4000 ; sets acceleration (P, T) and retract acceleration (R), mm/sec^2
M205 X8.00 Y8.00 Z2.00 E10.00 ; sets the jerk limits, mm/sec
M205 S0 T0 ; sets the minimum extruding and travel feed rate, mm/sec

; printing object 1HU.stl id:0 copy 0
; stop printing object 1HU.stl id:0 copy 0

;TYPE:Custom
M17 ; enable steppers
M862.1 P0.4 ; nozzle diameter check
M862.3 P "MK4" ; printer model check
M862.5 P2 ; g-code level check
M862.6 P"Input shaper" ; FW feature check
M115 U5.0.0+12061

M555 X96.2032 Y75.4 W57.5937 H55.2

G90 ; use absolute coordinates
M83 ; extruder relative mode

M140 S60 ; set bed temp
M104 T0 S170 ; set extruder temp for bed leveling
M109 T0 R170 ; wait for temp

M84 E ; turn off E motor

G28 ; home all without mesh bed level

G1 X42 Y-4 Z5 F4800

M302 S160 ; lower cold extrusion limit to 160C


G1 E-2 F2400 ; retraction


M84 E ; turn off E motor

G29 P9 X10 Y-4 W32 H4

M106 S100

G0 Z40 F10000

M190 S60 ; wait for bed temp

M107

;
; MBL
;
M84 E ; turn off E motor
G29 P1 ; invalidate mbl & probe print area
G29 P1 X0 Y0 W50 H20 C ; probe near purge place
G29 P3.2 ; interpolate mbl probes
G29 P3.13 ; extrapolate mbl outside probe area
G29 A ; activate mbl

; prepare for purge
M104 S230
G0 X0 Y-4 Z15 F4800 ; move away and ready for the purge
M109 S230

G92 E0
M569 S0 E ; set spreadcycle mode for extruder

;
; Extrude purge line
;
G92 E0 ; reset extruder position
G1 E2 F2400 ; deretraction after the initial one before nozzle cleaning
G0 E7 X15 Z0.2 F500 ; purge
G0 X25 E4 F500 ; purge
G0 X35 E4 F650 ; purge
G0 X45 E4 F800 ; purge
G0 X48 Z0.05 F8000 ; wipe, move close to the bed
G0 X51 Z0.2 F8000 ; wipe, move quickly away from the bed

G92 E0
M221 S100 ; set flow to 100%
G21 ; set units to millimeters
G90 ; use absolute coordinates
M83 ; use relative distances for extrusion
M900 K0.05 ; Filament gcode


M572 S0.038 ; Filament gcode


M142 S36 ; set heatbreak target temp
M107
;LAYER_CHANGE
;Z:0.2
;HEIGHT:0.2
;BEFORE_LAYER_CHANGE
G92 E0.0
;0.2
M201 X4000 Y4000
M74 W0

G1 E-.7 F2100
G1 Z.2 F720
;AFTER_LAYER_CHANGE
;0.2
G1 X109.437 Y81.781 F18000
G1 Z.2 F720
G1 E.7 F2100
M204 P500
;TYPE:Skirt/Brim
;WIDTH:0.5
G1 F2400
G1 X109.859 Y81.264 E.02536
G1 X110.341 Y80.826 E.02475
G1 X110.836 Y80.488 E.02278
G1 X111.384 Y80.221 E.02317
G1 X111.946 Y80.036 E.02249
G1 X112.606 Y79.919 E.02548
G1 X113.266 Y79.887 E.02511
G1 X137.321 Y79.912 E.91424
G1 X137.947 Y80.01 E.02408
G1 X138.575 Y80.205 E.02499
G1 X139.147 Y80.478 E.02409
G1 X139.651 Y80.819 E.02313
G1 X140.116 Y81.237 E.02376
G1 X140.542 Y81.751 E.02537
G1 X152.8 Y102.944 E.9305
G1 X153.173 Y103.926 E.03992
G1 X153.279 Y104.491 E.02185
G1 X153.309 Y105.052 E.02135
G1 X153.17 Y106.093 E.03992
G1 X152.959 Y106.71 E.02478
G1 X152.741 Y107.167 E.01924
G1 X140.885 Y127.713 E.90156
G1 X140.542 Y128.248 E.02415
G1 X140.109 Y128.771 E.02581
G1 X139.587 Y129.23 E.02642
G1 X139.036 Y129.582 E.02485
G1 X138.459 Y129.84 E.02402
G1 X137.85 Y130.011 E.02404
G1 X136.615 Y130.114 E.0471
G1 X113.283 Y130.113 E.88676
G1 X112.677 Y130.088 E.02305
G1 X112.088 Y129.998 E.02265
G1 X111.427 Y129.795 E.02628
G1 X110.97 Y129.587 E.01908
G1 X110.407 Y129.225 E.02544
G1 X109.9 Y128.78 E.02564
G1 X109.456 Y128.246 E.02639
G1 X109.117 Y127.716 E.02391
G1 X97.235 Y107.123 E.9036
G1 X96.837 Y106.116 E.04115
G1 X96.727 Y105.553 E.0218
G1 X96.69 Y104.995 E.02125
G1 X96.733 Y104.402 E.0226
G1 X96.83 Y103.908 E.01913
G1 X97.041 Y103.29 E.02482
G1 X97.259 Y102.833 E.01924
G1 X109.109 Y82.297 E.90112
G1 X109.405 Y81.831 E.02098
M73 P1 R21
M204 P4000
M204 T4000
G1 X109.79 Y82.075 F18000
M204 P500
G1 F2400
G1 X109.801 Y82.057 E.0008
G1 X110.18 Y81.589 E.02289
G1 X110.614 Y81.193 E.02233
G1 X111.052 Y80.891 E.02022
G1 X111.569 Y80.639 E.02186
G1 X112.071 Y80.476 E.02006
G1 X112.669 Y80.372 E.02307
G1 X113.281 Y80.344 E.02328
G1 X136.684 Y80.344 E.88946
G1 X137.266 Y80.366 E.02214
G1 X137.828 Y80.451 E.0216
G1 X138.424 Y80.637 E.02373
G1 X138.905 Y80.866 E.02025
G1 X139.381 Y81.188 E.02184
G1 X139.796 Y81.564 E.02128
G1 X140.18 Y82.03 E.02295
G1 X140.508 Y82.547 E.02327
G1 X152.387 Y103.142 E.90361
G1 X152.727 Y104.026 E.036
G1 X152.823 Y104.531 E.01954
G1 X152.852 Y105.061 E.02017
G1 X152.725 Y105.988 E.03556
G1 X152.333 Y106.961 E.03987
G1 X140.496 Y127.472 E.90005
G1 X140.18 Y127.969 E.02238
G1 X139.791 Y128.441 E.02325
G1 X139.324 Y128.856 E.02374
G1 X138.832 Y129.173 E.02224
G1 X138.319 Y129.404 E.02138
G1 X137.743 Y129.566 E.02274
G1 X136.613 Y129.657 E.04309
G1 X113.296 Y129.656 E.88619
G1 X112.205 Y129.556 E.04164
G1 X111.576 Y129.363 E.02501
G1 X111.177 Y129.179 E.0167
G1 X110.67 Y128.851 E.02295
G1 X110.217 Y128.45 E.02299
G1 X109.818 Y127.966 E.02384
G1 X109.506 Y127.475 E.02211
G1 X97.645 Y106.921 E.90192
G1 X97.283 Y106.013 E.03715
G1 X97.178 Y105.48 E.02065
G1 X97.147 Y104.984 E.01889
G1 X97.275 Y104.013 E.03722
G1 X97.667 Y103.039 E.0399
G1 X109.498 Y82.537 E.89964
G1 X109.758 Y82.125 E.01852
M204 P4000
G1 X110.152 Y82.406 F18000
M204 P500
G1 F2400
G1 X110.502 Y81.914 E.02295
G1 X110.91 Y81.541 E.02101
G1 X111.267 Y81.295 E.01648
G1 X111.754 Y81.058 E.02058
G1 X112.195 Y80.916 E.01761
G1 X112.731 Y80.825 E.02066
G1 X113.296 Y80.801 E.02149
G1 X137.212 Y80.82 E.90896
G1 X137.709 Y80.893 E.01909
G1 X138.272 Y81.069 E.02242
G1 X138.663 Y81.255 E.01646
G1 X139.112 Y81.558 E.02059
G1 X139.455 Y81.868 E.01757
G1 X139.802 Y82.287 E.02068
G1 X151.976 Y103.341 E.92433
G1 X152.281 Y104.127 E.03204
G1 X152.395 Y105.04 E.03497
G1 X152.28 Y105.881 E.03226
G1 X151.925 Y106.754 E.03582
G1 X140.107 Y127.232 E.8986
G1 X139.817 Y127.691 E.02064
G1 X139.472 Y128.113 E.02072
G1 X139.059 Y128.483 E.02107
G1 X138.628 Y128.764 E.01955
G1 X138.147 Y128.98 E.02004
G1 X137.638 Y129.121 E.02007
G1 X136.61 Y129.2 E.03919
G1 X113.309 Y129.199 E.88559
G1 X112.29 Y129.107 E.03889
G1 X111.384 Y128.771 E.03673
G1 X110.96 Y128.498 E.01917
G1 X110.535 Y128.121 E.02159
G1 X110.181 Y127.688 E.02126
G1 X109.895 Y127.235 E.02036
G1 X98.055 Y106.719 E.90027
G1 X97.728 Y105.908 E.03323
G1 X97.604 Y105.002 E.03475
G1 X97.719 Y104.12 E.03381
G1 X98.075 Y103.246 E.03587
G1 X109.888 Y82.776 E.89824
G1 X110.117 Y82.455 E.01499
M204 P4000
G1 X110.488 Y82.716 F18000
M204 P500
G1 F2400
G1 X110.824 Y82.239 E.02218
G1 X111.483 Y81.698 E.0324
G1 X111.938 Y81.476 E.01924
G1 X112.316 Y81.357 E.01506
G1 X113.309 Y81.258 E.03793
G1 X136.661 Y81.258 E.88752
G1 X137.624 Y81.343 E.03674
G1 X138.422 Y81.643 E.0324
G1 X138.841 Y81.927 E.01924
G1 X139.133 Y82.194 E.01504
G1 X139.721 Y83.012 E.03829
G1 X151.564 Y103.54 E.90072
G1 X151.836 Y104.231 E.02822
G1 X151.938 Y105.02 E.03024
G1 X151.836 Y105.772 E.02884
G1 X151.518 Y106.546 E.0318
G1 X139.718 Y126.993 E.89724
G1 X139.152 Y127.787 E.03706
G1 X138.793 Y128.112 E.0184
G1 X138.423 Y128.355 E.01682
G1 X137.977 Y128.556 E.01859
G1 X137.536 Y128.675 E.01736
G1 X136.608 Y128.743 E.03536
G1 X113.32 Y128.742 E.88509
G1 X112.376 Y128.657 E.03602
G1 X111.593 Y128.365 E.03176
G1 X111.25 Y128.144 E.01551
G1 X110.852 Y127.791 E.02022
G1 X110.284 Y126.996 E.03713
G1 X98.465 Y106.516 E.89869
G1 X98.173 Y105.801 E.02935
G1 X98.061 Y105.019 E.03002
G1 X98.164 Y104.228 E.03032
G1 X98.482 Y103.454 E.0318
G1 X110.278 Y83.014 E.89693
G1 X110.454 Y82.765 E.01159
M204 P4000
G1 X110.826 Y83.027 F18000
M204 P500
G1 F2400
G1 X111.169 Y82.539 E.02267
G1 X111.725 Y82.086 E.02726
M73 P2 R21
G1 X112.435 Y81.799 E.02911
G1 X113.321 Y81.715 E.03382
G1 X136.657 Y81.715 E.88692
G1 X137.536 Y81.792 E.03354
G1 X138.207 Y82.047 E.02728
G1 X138.81 Y82.517 E.02906
G1 X139.327 Y83.244 E.0339
G1 X151.153 Y103.741 E.89938
G1 X151.391 Y104.335 E.02432
G1 X151.481 Y105.028 E.02656
G1 X151.393 Y105.66 E.02425
G1 X151.112 Y106.337 E.02786
G1 X139.328 Y126.754 E.89595
G1 X138.831 Y127.461 E.03285
G1 X138.217 Y127.947 E.02976
G1 X137.839 Y128.12 E.0158
G1 X137.434 Y128.229 E.01594
G1 X136.606 Y128.286 E.03154
G1 X113.324 Y128.285 E.88486
G1 X112.464 Y128.208 E.03282
G1 X111.804 Y127.959 E.02681
G1 X111.194 Y127.487 E.02931
G1 X110.674 Y126.757 E.03406
G1 X98.866 Y106.297 E.89782
G1 X98.617 Y105.695 E.02476
G1 X98.519 Y105.007 E.02641
G1 X98.607 Y104.339 E.02561
G1 X98.888 Y103.663 E.02782
G1 X110.672 Y83.246 E.89595
G1 X110.792 Y83.076 E.00791
M204 P4000
G1 X111.164 Y83.338 F18000
M204 P500
G1 F2400
G1 X111.513 Y82.841 E.02308
G1 X111.965 Y82.475 E.0221
G1 X112.525 Y82.247 E.02298
G1 X113.325 Y82.172 E.03054
G1 X136.646 Y82.172 E.88635
G1 X137.446 Y82.24 E.03051
G1 X137.989 Y82.449 E.02211
G1 X138.467 Y82.82 E.023
G1 X138.933 Y83.476 E.03058
G1 X150.742 Y103.941 E.898
G1 X150.945 Y104.439 E.02044
G1 X151.024 Y105.005 E.02172
G1 X150.95 Y105.546 E.02075
G1 X150.706 Y106.126 E.02391
G1 X138.934 Y126.522 E.89503
G1 X138.487 Y127.159 E.02958
G1 X138.008 Y127.54 E.02326
G1 X137.333 Y127.783 E.02727
G1 X136.604 Y127.829 E.02776
G1 X113.328 Y127.828 E.88464
G1 X112.554 Y127.76 E.02953
G1 X112.016 Y127.554 E.0219
G1 X111.534 Y127.181 E.02316
G1 X111.067 Y126.525 E.0306
G1 X99.267 Y106.077 E.89727
G1 X99.062 Y105.589 E.02012
G1 X98.976 Y105.026 E.02165
G1 X99.05 Y104.454 E.02192
G1 X99.294 Y103.874 E.02391
G1 X111.066 Y83.478 E.89503
G1 X111.13 Y83.387 E.00423
M204 P4000
; printing object 1HU.stl id:0 copy 0
G1 E-.7 F2100
G1 X111.13 Y83.387 Z.4 F18014.394
G1 X133.111 Y90.711 F18000
G1 Z.2 F720
G1 E.7 F2100
M204 P500
;TYPE:Support material
G1 F2400
G1 X133.248 Y90.745 E.00536
G1 X133.366 Y90.908 E.00765
G1 X141.387 Y104.801 E.6097
G1 X141.47 Y105.001 E.00823
G1 X141.387 Y105.199 E.00816
G1 X133.234 Y119.264 E.61788
G1 X116.764 Y119.262 E.62596
G1 X108.613 Y105.199 E.61777
G1 X108.53 Y104.999 E.00823
G1 X108.613 Y104.801 E.00816
G1 X116.766 Y90.736 E.61788
G1 X133.043 Y90.709 E.61863
M204 P4000
G1 X140.998 Y105.461 F18000
M204 P500
G1 F2400
G1 X140.998 Y104.95 E.01942
G1 X140.426 Y103.96 E.04346
G1 X140.426 Y106.04 E.07905
G1 X139.855 Y107.029 E.0434
G1 X139.855 Y102.971 E.15423
G1 X139.284 Y101.981 E.04344
G1 X139.284 Y108.019 E.22948
G1 X138.712 Y109.008 E.04342
G1 X138.712 Y100.992 E.30466
G1 X138.141 Y100.002 E.04344
G1 X138.141 Y109.998 E.37991
G1 X137.57 Y110.988 E.04344
G1 X137.57 Y99.012 E.45516
G1 X136.998 Y98.023 E.04342
G1 X136.998 Y111.977 E.53034
G1 X136.427 Y112.967 E.04344
M73 P3 R21
G1 X136.427 Y97.033 E.60559
G1 X135.856 Y96.043 E.04344
G1 X135.856 Y113.957 E.68085
G1 X135.284 Y114.946 E.04342
G1 X135.284 Y95.054 E.75602
G1 X134.713 Y94.064 E.04344
G1 X134.713 Y115.936 E.83127
G1 X134.142 Y116.925 E.0434
M73 P3 R20
G1 X134.142 Y93.075 E.90645
G1 X133.57 Y92.085 E.04346
G1 X133.57 Y117.915 E.9817
G1 X132.999 Y118.88 E.04262
G1 X132.999 Y91.12 E1.05506
G1 X132.428 Y91.12 E.0217
G1 X132.428 Y118.88 E1.05506
G1 X131.856 Y118.88 E.02174
G1 X131.856 Y91.12 E1.05506
G1 X131.285 Y91.12 E.0217
G1 X131.285 Y118.88 E1.05506
G1 X130.713 Y118.88 E.02174
G1 X130.713 Y91.12 E1.05506
G1 X130.142 Y91.12 E.0217
G1 X130.142 Y118.88 E1.05506
G1 X129.571 Y118.88 E.0217
G1 X129.571 Y91.12 E1.05506
G1 X128.999 Y91.12 E.02174
G1 X128.999 Y118.88 E1.05506
G1 X128.428 Y118.88 E.0217
G1 X128.428 Y91.12 E1.05506
G1 X127.857 Y91.12 E.0217
G1 X127.857 Y118.88 E1.05506
G1 X127.285 Y118.88 E.02174
G1 X127.285 Y91.12 E1.05506
G1 X126.714 Y91.12 E.0217
G1 X126.714 Y118.88 E1.05506
G1 X126.143 Y118.88 E.0217
M73 P4 R20
G1 X126.143 Y91.12 E1.05506
G1 X125.571 Y91.12 E.02174
G1 X125.571 Y118.88 E1.05506
G1 X125 Y118.88 E.0217
G1 X125 Y91.12 E1.05506
G1 X124.429 Y91.12 E.0217
G1 X124.429 Y118.88 E1.05506
G1 X123.857 Y118.88 E.02174
G1 X123.857 Y91.12 E1.05506
G1 X123.286 Y91.12 E.0217
G1 X123.286 Y118.88 E1.05506
G1 X122.715 Y118.88 E.0217
G1 X122.715 Y91.12 E1.05506
G1 X122.143 Y91.12 E.02174
G1 X122.143 Y118.88 E1.05506
G1 X121.572 Y118.88 E.0217
G1 X121.572 Y91.12 E1.05506
G1 X121.001 Y91.12 E.0217
G1 X121.001 Y118.88 E1.05506
G1 X120.429 Y118.88 E.02174
G1 X120.429 Y91.12 E1.05506
G1 X119.858 Y91.12 E.0217
G1 X119.858 Y118.88 E1.05506
G1 X119.287 Y118.88 E.0217
G1 X119.287 Y91.12 E1.05506
G1 X118.715 Y91.12 E.02174
G1 X118.715 Y118.88 E1.05506
G1 X118.144 Y118.88 E.0217
G1 X118.144 Y91.12 E1.05506
G1 X117.572 Y91.12 E.02174
G1 X117.572 Y118.88 E1.05506
G1 X117.001 Y118.88 E.0217
M73 P5 R20
G1 X117.001 Y91.12 E1.05506
G1 X116.43 Y92.085 E.04262
G1 X116.43 Y117.915 E.9817
G1 X115.858 Y116.925 E.04346
G1 X115.858 Y93.075 E.90645
G1 X115.287 Y94.064 E.0434
G1 X115.287 Y115.936 E.83127
G1 X114.716 Y114.946 E.04344
G1 X114.716 Y95.054 E.75602
G1 X114.144 Y96.044 E.04346
G1 X114.144 Y113.956 E.68077
G1 X113.573 Y112.967 E.0434
G1 X113.573 Y97.033 E.60559
G1 X113.002 Y98.023 E.04344
G1 X113.002 Y111.977 E.53034
G1 X112.43 Y110.988 E.04342
G1 X112.43 Y99.012 E.45516
G1 X111.859 Y100.002 E.04344
G1 X111.859 Y109.998 E.37991
G1 X111.288 Y109.008 E.04344
G1 X111.288 Y100.992 E.30466
G1 X110.716 Y101.981 E.04342
G1 X110.716 Y108.019 E.22948
G1 X110.145 Y107.029 E.04344
G1 X110.145 Y102.971 E.15423
G1 X109.574 Y103.96 E.0434
G1 X109.574 Y106.04 E.07905
G1 X109.002 Y105.05 E.04346
G1 X109.002 Y104.539 E.01942
M204 P4000
G1 E-.7 F2100
G1 X109.002 Y104.539 Z.4 F18014.394
G1 X137.478 Y126.63 F18000
G1 Z.2 F720
G1 E.7 F2100
M204 P500
;TYPE:Perimeter
;WIDTH:0.499999
G1 F2400
G1 X137.423 Y126.67 E.00258
G1 X136.879 Y126.788 E.02116
G1 X113.36 Y126.793 E.89387
G1 X112.776 Y126.742 E.02228
G1 X112.518 Y126.64 E.01054
G1 X112.297 Y126.47 E.0106
G1 X111.947 Y125.978 E.02295
G1 X100.257 Y105.722 E.88886
G1 X100.113 Y105.421 E.01268
G1 X100.018 Y105.01 E.01603
G1 X100.056 Y104.723 E.011
G1 X100.213 Y104.353 E.01528
G1 X111.947 Y84.023 E.89213
G1 X112.283 Y83.543 E.02227
G1 X112.5 Y83.37 E.01055
G1 X112.758 Y83.264 E.0106
G1 X113.359 Y83.207 E.02294
G1 X136.609 Y83.207 E.88365
G1 X137.225 Y83.259 E.0235
G1 X137.482 Y83.36 E.01049
G1 X137.703 Y83.53 E.0106
G1 X138.053 Y84.022 E.02295
G1 X149.812 Y104.398 E.89412
G1 X149.959 Y104.833 E.01745
G1 X149.962 Y105.137 E.01155
G1 X149.944 Y105.277 E.00536
G1 X149.787 Y105.647 E.01528
G1 X138.053 Y125.977 E.89213
G1 X137.717 Y126.457 E.02227
G1 X137.527 Y126.595 E.00892
M204 P4000
G1 X137.791 Y126.974 F18000
M204 P500
;TYPE:External perimeter
G1 F2400
G1 X137.491 Y127.143 E.01309
G1 X136.92 Y127.245 E.02205
G1 X113.34 Y127.25 E.89619
G1 X112.671 Y127.191 E.02552
G1 X112.29 Y127.042 E.01555
G1 X111.963 Y126.79 E.01569
G1 X111.562 Y126.225 E.02633
G1 X99.835 Y105.904 E.8917
G1 X99.618 Y105.423 E.02006
G1 X99.556 Y105.014 E.01572
G1 X99.611 Y104.602 E.0158
G1 X99.803 Y104.149 E.0187
G1 X111.561 Y83.777 E.89397
G1 X111.947 Y83.227 E.02554
G1 X112.266 Y82.972 E.01552
G1 X112.647 Y82.815 E.01566
G1 X113.338 Y82.75 E.02638
G1 X136.628 Y82.75 E.88517
G1 X137.33 Y82.809 E.02677
M73 P6 R20
G1 X137.71 Y82.958 E.01551
G1 X138.037 Y83.21 E.01569
G1 X138.438 Y83.775 E.02633
G1 X150.165 Y104.096 E.8917
G1 X150.382 Y104.577 E.02006
G1 X150.444 Y104.986 E.01572
G1 X150.416 Y105.198 E.00813
G1 X150.389 Y105.398 E.00767
G1 X150.197 Y105.851 E.0187
G1 X138.439 Y126.223 E.89397
G1 X138.053 Y126.773 E.02554
G1 X137.842 Y126.942 E.01027
M204 P4000
G1 X137.487 Y127.126 F18000
G1 E-.7 F2100
G1 Z.4 F720
G1 X107.064 Y104.658 F18000
G1 Z.2 F720
G1 E.7 F2100
M204 P500
;TYPE:Perimeter
G1 F2400
G1 X107.075 Y104.564 E.0036
G1 X107.234 Y104.159 E.01654
G1 X115.392 Y90.03 E.62008
G1 X115.776 Y89.593 E.02211
G1 X115.969 Y89.45 E.00913
G1 X116.413 Y89.258 E.01838
G1 X116.972 Y89.192 E.02139
G1 X133.16 Y89.194 E.61525
G1 X133.731 Y89.309 E.02214
G1 X133.951 Y89.403 E.00909
G1 X134.28 Y89.631 E.01521
G1 X134.676 Y90.144 E.02463
G1 X142.768 Y104.164 E.61523
G1 X142.954 Y104.715 E.0221
G1 X142.983 Y104.954 E.00915
G1 X142.925 Y105.436 E.01845
