; generated by PrusaSlicer 2.7.0+win64 on 2023-11-26 at 17:38:37 UTC


;
;
; 

; external perimeters extrusion width = 0.45mm
; perimeters extrusion width = 0.45mm
; infill extrusion width = 0.45mm
; solid infill extrusion width = 0.45mm
; top infill extrusion width = 0.40mm
; support material extrusion width = 0.35mm
; first layer extrusion width = 0.42mm

M73 P0 R45
M73 Q0 S45
M201 X1000 Y1000 Z200 E5000 ; sets maximum accelerations, mm/sec^2
M203 X200 Y200 Z12 E120 ; sets maximum feedrates, mm / sec
M204 S1250 T1250 ; sets acceleration (S) and retract acceleration (R), mm/sec^2
M205 X8.00 Y8.00 Z0.40 E4.50 ; sets the jerk limits, mm/sec
M205 S0 T0 ; sets the minimum extruding and travel feed rate, mm/sec

; printing object 1HU.stl id:0 copy 0
; stop printing object 1HU.stl id:0 copy 0

;TYPE:Custom
M862.3 P "MK3S" ; printer model check
M862.1 P0.4 ; nozzle diameter check
M115 U3.13.1 ; tell printer latest fw version
G90 ; use absolute coordinates
M83 ; extruder relative mode
M104 S215 ; set extruder temp
M140 S60 ; set bed temp
M190 S60 ; wait for bed temp
M109 S215 ; wait for extruder temp
G28 W ; home all without mesh bed level
G80 ; mesh bed leveling

G1 Z0.2 F720
G1 Y-3 F1000 ; go outside print area
G92 E0
G1 X60 E9 F1000 ; intro line
G1 X100 E12.5 F1000 ; intro line

G92 E0
M221 S95

; Don't change E values below. Excessive value can damage the printer.

M907 E538 ; set extruder motor current
G21 ; set units to millimeters
G90 ; use absolute coordinates
M83 ; use relative distances for extrusion
M900 K0.05 ; Filament gcode LA 1.5
M900 K30 ; Filament gcode LA 1.0

M107
;LAYER_CHANGE
;Z:0.2
;HEIGHT:0.2
;BEFORE_LAYER_CHANGE
G92 E0.0
;0.2


G1 E-.8 F2100
G1 Z.2 F720
;AFTER_LAYER_CHANGE
;0.2
G1 X104.038 Y77.227 F10800
G1 Z.2 F720
G1 E.8 F2100
M204 S800
;TYPE:Skirt/Brim
;WIDTH:0.42
G1 F1200
G1 X106.455 Y74.809 E.1072
G1 X108.136 Y74.113 E.05705
G1 X141.864 Y74.113 E1.05752
G1 X143.545 Y74.809 E.05705
G1 X146.26 Y77.589 E.12184
G1 X150.874 Y84.51 E.26081
G1 X157.943 Y98.608 E.49449
G1 X158.194 Y99.671 E.03425
M73 P0 R44
G1 X158.194 Y110.329 E.33417
G1 X157.943 Y111.392 E.03425
G1 X150.874 Y125.49 E.49449
G1 X145.963 Y132.773 E.27542
G1 X143.545 Y135.191 E.10722
G1 X141.864 Y135.887 E.05705
G1 X108.136 Y135.887 E1.05752
G1 X106.455 Y135.191 E.05705
G1 X103.741 Y132.411 E.12182
G1 X99.126 Y125.49 E.26082
G1 X92.057 Y111.392 E.49449
G1 X91.806 Y110.329 E.03425
G1 X91.806 Y99.671 E.33417
G1 X92.057 Y98.608 E.03425
G1 X99.126 Y84.51 E.49449
G1 X104.004 Y77.277 E.27354
M204 S1000
;WIPE_START
G1 F8640
G1 X104.038 Y77.227 E-.01396
G1 X106.445 Y74.82 E-.78604
;WIPE_END
G1 Z.6 F720
G1 X109.795 Y81.455 F10800
G1 Z.2 F720
G1 E.8 F2100
M204 S800
G1 F1200
G1 X109.893 Y81.319 E.00526
G1 X110.854 Y80.55 E.03859
G1 X111.977 Y80.093 E.03801
G1 X113.279 Y79.95 E.04107
G1 X137.281 Y79.971 E.75257
G1 X137.923 Y80.069 E.02036
G1 X139.101 Y80.524 E.03959
G1 X140.059 Y81.268 E.03803
G1 X140.482 Y81.775 E.0207
G1 X152.731 Y102.95 E.76701
G1 X153.104 Y103.901 E.03203
G1 X153.247 Y105.044 E.03612
G1 X153.109 Y106.077 E.03268
G1 X152.686 Y107.136 E.03576
G1 X140.833 Y127.677 E.74358
G1 X140.055 Y128.735 E.04118
G1 X139.009 Y129.526 E.04112
G1 X137.834 Y129.95 E.03917
G1 X136.615 Y130.051 E.03835
G1 X113.288 Y130.05 E.7314
G1 X112.105 Y129.938 E.03726
G1 X110.999 Y129.531 E.03695
G1 X109.959 Y128.75 E.04078
G1 X109.169 Y127.68 E.0417
G1 X97.304 Y107.122 E.74423
G1 X96.896 Y106.099 E.03453
M73 Q0 S44
G1 X96.753 Y105.009 E.03447
G1 X96.891 Y103.923 E.03432
G1 X97.314 Y102.864 E.03576
G1 X109.161 Y82.333 E.74322
G1 X109.76 Y81.504 E.03207
M204 S1000
G1 X110.063 Y81.721 F10800
M204 S800
G1 F1200
G1 X110.159 Y81.587 E.00517
G1 X111.032 Y80.883 E.03516
G1 X112.08 Y80.456 E.03548
G1 X113.291 Y80.327 E.03818
G1 X136.672 Y80.326 E.73309
G1 X137.826 Y80.433 E.03634
M73 P1 R44
M73 Q1 S44
G1 X138.902 Y80.845 E.03613
G1 X139.796 Y81.539 E.03549
G1 X140.522 Y82.538 E.03872
G1 X152.386 Y103.102 E.74438
G1 X152.737 Y103.99 E.02994
G1 X152.87 Y105.028 E.03281
G1 X152.742 Y105.991 E.03046
G1 X152.35 Y106.966 E.03295
G1 X140.512 Y127.478 E.74256
G1 X139.794 Y128.463 E.03822
G1 X138.841 Y129.188 E.03754
G1 X137.747 Y129.583 E.03647
G1 X136.613 Y129.674 E.03567
G1 X113.299 Y129.673 E.73099
G1 X112.202 Y129.573 E.03454
G1 X111.169 Y129.194 E.0345
G1 X110.219 Y128.477 E.03732
G1 X109.489 Y127.481 E.03872
G1 X97.637 Y106.945 E.74343
G1 X97.262 Y106.01 E.03159
G1 X97.13 Y104.998 E.032
G1 X97.258 Y104.009 E.03127
G1 X97.651 Y103.034 E.03296
G1 X109.482 Y82.531 E.74221
G1 X110.028 Y81.769 E.02939
M204 S1000
G1 X110.331 Y81.985 F10800
M204 S800
G1 F1200
G1 X110.424 Y81.854 E.00504
G1 X111.21 Y81.215 E.03176
G1 X112.158 Y80.825 E.03214
G1 X113.304 Y80.704 E.03613
G1 X137.194 Y80.721 E.74905
G1 X137.728 Y80.798 E.01692
G1 X138.703 Y81.165 E.03266
G1 X139.515 Y81.791 E.03215
G1 X139.872 Y82.219 E.01748
G1 X152.041 Y103.255 E.76198
G1 X152.371 Y104.08 E.02786
G1 X152.493 Y105.013 E.0295
G1 X152.375 Y105.903 E.02815
G1 X152.013 Y106.796 E.03021
G1 X140.192 Y127.28 E.74153
G1 X139.531 Y128.192 E.03532
G1 X138.672 Y128.851 E.03395
G1 X137.659 Y129.215 E.03375
G1 X136.611 Y129.297 E.03296
G1 X113.309 Y129.297 E.73062
G1 X112.272 Y129.202 E.03265
G1 X111.34 Y128.858 E.03115
G1 X110.48 Y128.204 E.03388
G1 X109.81 Y127.283 E.03571
G1 X97.971 Y106.768 E.74266
G1 X97.629 Y105.92 E.02867
G1 X97.507 Y104.987 E.0295
G1 X97.625 Y104.097 E.02815
G1 X97.987 Y103.204 E.03021
G1 X109.804 Y82.728 E.74125
G1 X110.297 Y82.034 E.02669
M204 S1000
G1 X110.601 Y82.249 F10800
M204 S800
G1 F1200
G1 X110.691 Y82.122 E.00488
G1 X111.389 Y81.548 E.02833
G1 X112.259 Y81.189 E.02951
G1 X113.315 Y81.08 E.03329
G1 X136.66 Y81.081 E.73197
G1 X137.658 Y81.169 E.03141
G1 X138.505 Y81.486 E.02836
G1 X139.251 Y82.06 E.02951
G1 X139.873 Y82.922 E.03333
G1 X151.696 Y103.409 E.74165
G1 X152.005 Y104.172 E.02581
G1 X152.116 Y104.998 E.02613
G1 X152.008 Y105.814 E.02581
G1 X151.677 Y106.625 E.02746
G1 X139.871 Y127.082 E.74057
G1 X139.268 Y127.922 E.03242
G1 X138.503 Y128.513 E.03031
G1 X137.574 Y128.848 E.03096
G1 X136.609 Y128.92 E.03034
G1 X113.318 Y128.92 E.73027
G1 X112.342 Y128.831 E.03073
G1 X111.512 Y128.522 E.02777
G1 X110.741 Y127.931 E.03046
G1 X110.131 Y127.085 E.0327
G1 X98.304 Y106.591 E.7419
G1 X97.995 Y105.828 E.02581
G1 X97.884 Y105.002 E.02613
G1 X97.992 Y104.186 E.02581
G1 X98.323 Y103.375 E.02746
G1 X110.126 Y82.924 E.74036
G1 X110.567 Y82.298 E.02401
M204 S1000
G1 X110.874 Y82.514 F10800
M204 S800
G1 F1200
G1 X110.976 Y82.369 E.00556
G1 X111.59 Y81.867 E.02487
G1 X112.359 Y81.552 E.02606
G1 X113.319 Y81.458 E.03024
G1 X136.657 Y81.458 E.73175
G1 X137.587 Y81.539 E.02927
G1 X138.329 Y81.82 E.02488
G1 X138.986 Y82.329 E.02606
G1 X139.548 Y83.113 E.03025
G1 X151.363 Y103.586 E.74114
G1 X151.638 Y104.263 E.02291
M73 P2 R44
G1 X151.739 Y104.982 E.02277
M73 Q2 S44
G1 X151.642 Y105.724 E.02346
G1 X151.341 Y106.453 E.02473
G1 X139.549 Y126.885 E.73967
G1 X139.004 Y127.652 E.0295
G1 X138.334 Y128.176 E.02667
G1 X137.49 Y128.48 E.02813
G1 X136.607 Y128.543 E.02776
G1 X113.322 Y128.542 E.73008
G1 X112.413 Y128.461 E.02861
G1 X111.685 Y128.187 E.02439
G1 X111.002 Y127.659 E.02707
G1 X110.452 Y126.888 E.02969
G1 X98.637 Y106.414 E.74117
G1 X98.362 Y105.737 E.02291
G1 X98.261 Y105.018 E.02277
G1 X98.358 Y104.276 E.02346
G1 X98.659 Y103.547 E.02473
G1 X110.45 Y83.116 E.73962
G1 X110.839 Y82.563 E.0212
M204 S1000
G1 X111.146 Y82.779 F10800
M204 S800
G1 F1200
G1 X111.26 Y82.617 E.00621
G1 X111.789 Y82.188 E.02136
G1 X112.457 Y81.917 E.0226
G1 X113.322 Y81.835 E.02724
G1 X136.654 Y81.835 E.73156
G1 X137.514 Y81.91 E.02707
G1 X138.151 Y82.153 E.02138
G1 X138.719 Y82.596 E.02259
G1 X139.223 Y83.305 E.02727
G1 X151.03 Y103.764 E.74064
G1 X151.272 Y104.355 E.02002
G1 X151.361 Y104.992 E.02017
G1 X151.276 Y105.631 E.02021
G1 X151.006 Y106.28 E.02204
G1 X139.224 Y126.694 E.73902
G1 X138.74 Y127.383 E.0264
G1 X138.163 Y127.839 E.02306
G1 X137.406 Y128.112 E.02523
G1 X136.606 Y128.166 E.02514
G1 X113.325 Y128.165 E.72996
G1 X112.486 Y128.09 E.02641
G1 X111.859 Y127.852 E.02103
G1 X111.284 Y127.408 E.02278
G1 X110.777 Y126.696 E.02741
G1 X98.97 Y106.236 E.74066
G1 X98.728 Y105.645 E.02002
G1 X98.639 Y105.008 E.02017
G1 X98.724 Y104.369 E.02021
G1 X98.994 Y103.72 E.02204
G1 X110.775 Y83.307 E.73898
G1 X111.112 Y82.828 E.01836
M204 S1000
G1 X111.419 Y83.044 F10800
M204 S800
G1 F1200
G1 X111.543 Y82.867 E.00678
G1 X111.987 Y82.509 E.01788
G1 X112.532 Y82.287 E.01845
G1 X113.325 Y82.212 E.02497
G1 X137.099 Y82.227 E.74542
G1 X137.79 Y82.395 E.0223
G1 X138.272 Y82.693 E.01777
G1 X138.898 Y83.496 E.03192
G1 X150.698 Y103.942 E.74017
G1 X150.906 Y104.446 E.0171
M73 P2 R43
G1 X150.984 Y104.975 E.01677
G1 X150.911 Y105.537 E.01777
G1 X150.672 Y106.106 E.01935
G1 X138.899 Y126.502 E.73839
G1 X138.457 Y127.133 E.02416
G1 X137.991 Y127.504 E.01868
G1 X137.323 Y127.744 E.02226
G1 X136.604 Y127.789 E.02259
G1 X113.328 Y127.788 E.7298
G1 X112.56 Y127.72 E.02417
G1 X112.034 Y127.518 E.01767
G1 X111.564 Y127.155 E.01862
G1 X111.102 Y126.505 E.025
G1 X99.302 Y106.058 E.7402
G1 X99.094 Y105.554 E.0171
G1 X99.016 Y105.025 E.01677
G1 X99.089 Y104.463 E.01777
G1 X99.328 Y103.894 E.01935
G1 X111.1 Y83.498 E.73838
G1 X111.385 Y83.093 E.01553
M204 S1000
; printing object 1HU.stl id:0 copy 0
;WIPE_START
G1 F8640
G1 X111.419 Y83.044 E-.01377
G1 X111.543 Y82.867 E-.0499
G1 X111.987 Y82.509 E-.1317
G1 X112.532 Y82.287 E-.13588
G1 X113.325 Y82.212 E-.18392
G1 X114.559 Y82.213 E-.28483
;WIPE_END
G1 Z.6 F720
G1 X141.786 Y78.986 F10800
G1 Z.2 F720
G1 E.8 F2100
M204 S800
;TYPE:Support material
G1 F1200
G1 X144.093 Y78.986 E.07233
G1 X144.093 Y83.6 E.14467
G1 X146.4 Y83.6 E.07233
G1 X146.4 Y85.907 E.07233
G1 X148.707 Y85.907 E.07233
G1 X148.707 Y90.521 E.14467
G1 X151.014 Y90.521 E.07233
G1 X151.014 Y95.135 E.14467
G1 X153.321 Y95.135 E.07233
G1 X153.321 Y99.749 E.14467
G1 X155.628 Y99.749 E.07233
G1 X155.628 Y110.251 E.32928
G1 X153.321 Y110.251 E.07233
G1 X153.321 Y114.865 E.14467
G1 X151.014 Y114.865 E.07233
G1 X151.014 Y119.479 E.14467
G1 X148.707 Y119.479 E.07233
G1 X148.707 Y124.093 E.14467
G1 X146.4 Y124.093 E.07233
G1 X146.4 Y126.4 E.07233
G1 X144.093 Y126.4 E.07233
G1 X144.093 Y131.014 E.14467
G1 X141.786 Y131.014 E.07233
G1 X141.786 Y133.321 E.07233
G1 X108.214 Y133.321 E1.05263
G1 X108.214 Y131.014 E.07233
M73 P3 R43
M73 Q3 S44
G1 X105.907 Y131.014 E.07233
G1 X105.907 Y126.4 E.14467
G1 X103.6 Y126.4 E.07233
G1 X103.6 Y124.093 E.07233
G1 X101.293 Y124.093 E.07233
G1 X101.293 Y119.479 E.14467
G1 X98.986 Y119.479 E.07233
G1 X98.986 Y114.865 E.14467
G1 X96.679 Y114.865 E.07233
G1 X96.679 Y110.251 E.14467
G1 X94.372 Y110.251 E.07233
G1 X94.372 Y99.749 E.32928
G1 X96.679 Y99.749 E.07233
G1 X96.679 Y95.135 E.14467
G1 X98.986 Y95.135 E.07233
M73 Q3 S43
G1 X98.986 Y90.521 E.14467
G1 X101.293 Y90.521 E.07233
G1 X101.293 Y85.907 E.14467
G1 X103.6 Y85.907 E.07233
G1 X103.6 Y83.6 E.07233
G1 X105.907 Y83.6 E.07233
G1 X105.907 Y78.986 E.14467
G1 X108.214 Y78.986 E.07233
G1 X108.214 Y76.679 E.07233
G1 X141.786 Y76.679 E1.05263
G1 X141.786 Y78.929 E.07055
M204 S1000
G1 X113.395 Y78.99 F10800
M204 S800
G1 F1200
G1 X137.022 Y78.996 E.74081
G1 X138.353 Y79.189 E.04217
G1 X138.977 Y79.401 E.02066
G1 X139.696 Y79.763 E.02524
G1 X140.619 Y80.474 E.03653
G1 X141.538 Y81.633 E.04638
G1 X153.591 Y102.525 E.75625
G1 X154.074 Y103.837 E.04384
G1 X154.204 Y105.108 E.04006
G1 X154.05 Y106.264 E.03657
G1 X153.603 Y107.451 E.03977
G1 X141.509 Y128.414 E.75882
G1 X140.986 Y129.135 E.02793
G1 X140.544 Y129.597 E.02005
G1 X139.94 Y130.08 E.02425
G1 X139.34 Y130.434 E.02184
G1 X138.152 Y130.862 E.03959
G1 X136.967 Y131.006 E.03743
G1 X113.395 Y131.01 E.73908
G1 X111.918 Y130.877 E.0465
G1 X110.579 Y130.393 E.04464
G1 X109.895 Y129.962 E.02535
G1 X109.381 Y129.526 E.02113
G1 X108.501 Y128.429 E.04409
G1 X96.409 Y107.475 E.75855
G1 X95.97 Y106.342 E.0381
G1 X95.799 Y105.208 E.03596
G1 X95.908 Y103.922 E.04047
G1 X96.319 Y102.708 E.04019
G1 X108.334 Y81.847 E.75481
G1 X108.762 Y81.184 E.02474
G1 X109.323 Y80.53 E.02702
G1 X109.819 Y80.096 E.02066
G1 X110.492 Y79.654 E.02525
G1 X111.848 Y79.138 E.04549
G1 X113.339 Y78.99 E.04698
M204 S1000
;WIPE_START
G1 F8640
G1 X111.848 Y79.138 E-.34597
G1 X110.492 Y79.654 E-.33501
G1 X110.061 Y79.937 E-.11902
;WIPE_END
G1 Z.6 F720
G1 X155.166 Y110.081 F10800
G1 Z.2 F720
G1 E.8 F2100
M204 S800
G1 F1200
G1 X155.166 Y100.089 E.31329
G1 X154.747 Y100.089 E.01314
G1 X154.747 Y109.911 E.30796
G1 X154.328 Y109.911 E.01314
G1 X154.328 Y106.529 E.10604
G1 X153.909 Y107.598 E.036
G1 X153.909 Y109.911 E.07252
G1 X153.49 Y109.911 E.01314
G1 X153.49 Y108.352 E.04888
G1 X153.071 Y109.078 E.02628
G1 X153.071 Y109.911 E.02612
G1 X152.982 Y109.911 E.00279
G1 X152.982 Y114.525 E.14467
G1 X152.652 Y114.525 E.01035
G1 X152.652 Y109.803 E.14805
G1 X152.234 Y110.529 E.02627
G1 X152.234 Y114.525 E.12529
G1 X151.815 Y114.525 E.01314
G1 X151.815 Y111.255 E.10253
G1 X151.396 Y111.98 E.02626
G1 X151.396 Y114.525 E.0798
G1 X150.977 Y114.525 E.01314
G1 X150.977 Y112.706 E.05703
G1 X150.558 Y113.432 E.02628
G1 X150.558 Y119.139 E.17894
G1 X150.139 Y119.139 E.01314
G1 X150.139 Y114.157 E.15621
G1 X149.72 Y114.883 E.02628
G1 X149.72 Y119.139 E.13344
G1 X149.301 Y119.139 E.01314
G1 X149.301 Y115.609 E.11068
G1 X148.882 Y116.334 E.02626
G1 X148.882 Y119.139 E.08795
G1 X148.463 Y119.139 E.01314
G1 X148.463 Y117.06 E.06519
G1 X148.044 Y117.786 E.02628
G1 X148.044 Y123.754 E.18712
G1 X147.625 Y123.754 E.01314
G1 X147.625 Y118.512 E.16436
G1 X147.206 Y119.237 E.02626
G1 X147.206 Y123.754 E.14163
G1 X146.787 Y123.754 E.01314
G1 X146.787 Y119.963 E.11886
G1 X146.368 Y120.689 E.02628
G1 X146.368 Y123.754 E.0961
G1 X146.061 Y123.754 E.00963
G1 X146.061 Y126.061 E.07233
G1 X145.949 Y126.061 E.00351
G1 X145.949 Y121.414 E.1457
G1 X145.53 Y122.14 E.02628
G1 X145.53 Y126.061 E.12294
G1 X145.111 Y126.061 E.01314
G1 X145.111 Y122.866 E.10018
G1 X144.692 Y123.591 E.02626
G1 X144.692 Y126.061 E.07745
G1 X144.273 Y126.061 E.01314
G1 X144.273 Y124.317 E.05468
G1 X143.854 Y125.043 E.02628
G1 X143.854 Y126.061 E.03192
G1 X143.754 Y126.061 E.00314
G1 X143.754 Y130.675 E.14467
G1 X143.435 Y130.675 E.01
G1 X143.435 Y125.768 E.15386
G1 X143.016 Y126.494 E.02628
G1 X143.016 Y130.675 E.13109
G1 X142.597 Y130.675 E.01314
G1 X142.597 Y127.22 E.10833
G1 X142.178 Y127.945 E.02626
G1 X142.178 Y130.675 E.0856
G1 X141.759 Y130.675 E.01314
G1 X141.759 Y128.653 E.0634
G1 X141.34 Y129.237 E.02254
G1 X141.34 Y132.982 E.11742
G1 X140.921 Y132.982 E.01314
G1 X140.921 Y129.705 E.10275
G1 X140.502 Y130.082 E.01767
G1 X140.502 Y132.982 E.09093
G1 X140.083 Y132.982 E.01314
G1 X140.083 Y130.392 E.08121
G1 X139.664 Y130.647 E.01538
G1 X139.664 Y132.982 E.07321
G1 X139.245 Y132.982 E.01314
G1 X139.245 Y130.853 E.06675
G1 X138.826 Y131.018 E.01412
G1 X138.826 Y132.982 E.06158
G1 X138.407 Y132.982 E.01314
G1 X138.407 Y131.146 E.05757
G1 X137.988 Y131.241 E.01347
G1 X137.988 Y132.982 E.05459
G1 X137.569 Y132.982 E.01314
G1 X137.569 Y131.304 E.05261
G1 X137.15 Y131.338 E.01318
G1 X137.15 Y132.982 E.05155
G1 X136.731 Y132.982 E.01314
G1 X136.731 Y131.349 E.0512
G1 X136.312 Y131.349 E.01314
M73 P4 R43
G1 X136.312 Y132.982 E.0512
G1 X135.893 Y132.982 E.01314
M73 Q4 S43
G1 X135.893 Y131.349 E.0512
G1 X135.474 Y131.349 E.01314
G1 X135.474 Y132.982 E.0512
G1 X135.055 Y132.982 E.01314
G1 X135.055 Y131.349 E.0512
G1 X134.636 Y131.349 E.01314
G1 X134.636 Y132.982 E.0512
G1 X134.217 Y132.982 E.01314
G1 X134.217 Y131.349 E.0512
G1 X133.799 Y131.349 E.01311
G1 X133.799 Y132.982 E.0512
G1 X133.38 Y132.982 E.01314
G1 X133.38 Y131.349 E.0512
G1 X132.961 Y131.349 E.01314
G1 X132.961 Y132.982 E.0512
G1 X132.542 Y132.982 E.01314
G1 X132.542 Y131.349 E.0512
G1 X132.123 Y131.349 E.01314
G1 X132.123 Y132.982 E.0512
G1 X131.704 Y132.982 E.01314
G1 X131.704 Y131.349 E.0512
G1 X131.285 Y131.349 E.01314
G1 X131.285 Y132.982 E.0512
G1 X130.866 Y132.982 E.01314
G1 X130.866 Y131.349 E.0512
G1 X130.447 Y131.349 E.01314
G1 X130.447 Y132.982 E.0512
G1 X130.028 Y132.982 E.01314
G1 X130.028 Y131.349 E.0512
G1 X129.609 Y131.349 E.01314
