; generated by PrusaSlicer 2.7.0+win64 on 2023-11-26 at 18:07:52 UTC


;
;

;
;

;
;

;
;
; 

; external perimeters extrusion width = 0.45mm
; perimeters extrusion width = 0.45mm
; infill extrusion width = 0.45mm
; solid infill extrusion width = 0.45mm
; top infill extrusion width = 0.42mm
; support material extrusion width = 0.36mm
; first layer extrusion width = 0.50mm

; external perimeters extrusion width = 0.45mm
; perimeters extrusion width = 0.45mm
; infill extrusion width = 0.45mm
; solid infill extrusion width = 0.45mm
; top infill extrusion width = 0.42mm
; support material extrusion width = 0.36mm
; first layer extrusion width = 0.50mm

; external perimeters extrusion width = 0.45mm
; perimeters extrusion width = 0.45mm
; infill extrusion width = 0.45mm
; solid infill extrusion width = 0.45mm
; top infill extrusion width = 0.42mm
; support material extrusion width = 0.36mm
; first layer extrusion width = 0.50mm

M73 P0 R30
M201 X4000 Y4000 Z200 E2500 ; sets maximum accelerations, mm/sec^2
M203 X300 Y300 Z40 E100 ; sets maximum feedrates, mm / sec
M204 P4000 R1200 T4000 ; sets acceleration (P, T) and retract acceleration (R), mm/sec^2
M205 X8.00 Y8.00 Z2.00 E10.00 ; sets the jerk limits, mm/sec
M205 S0 T0 ; sets the minimum extruding and travel feed rate, mm/sec

; printing object 6cm spacer.stl id:0 copy 0
; stop printing object 6cm spacer.stl id:0 copy 0

;TYPE:Custom
M17 ; enable steppers
M862.1 P0.4 ; nozzle diameter check
M862.3 P "MK4" ; printer model check
M862.5 P2 ; g-code level check
M862.6 P"Input shaper" ; FW feature check
M115 U5.0.0+12061

M555 X99.2513 Y73.2823 W51.4974 H58.8707

G90 ; use absolute coordinates
M83 ; extruder relative mode

M140 S60 ; set bed temp
M104 T0 S170 ; set extruder temp for bed leveling
M109 T0 R170 ; wait for temp

M84 E ; turn off E motor

G28 ; home all without mesh bed level

G1 X42 Y-4 Z5 F4800

M302 S160 ; lower cold extrusion limit to 160C


G1 E-2 F2400 ; retraction


M84 E ; turn off E motor

G29 P9 X10 Y-4 W32 H4

M106 S100

G0 Z40 F10000

M190 S60 ; wait for bed temp

M107

;
; MBL
;
M84 E ; turn off E motor
G29 P1 ; invalidate mbl & probe print area
G29 P1 X0 Y0 W50 H20 C ; probe near purge place
G29 P3.2 ; interpolate mbl probes
G29 P3.13 ; extrapolate mbl outside probe area
G29 A ; activate mbl

; prepare for purge
M104 S230
G0 X0 Y-4 Z15 F4800 ; move away and ready for the purge
M109 S230

G92 E0
M569 S0 E ; set spreadcycle mode for extruder

;
; Extrude purge line
;
G92 E0 ; reset extruder position
G1 E2 F2400 ; deretraction after the initial one before nozzle cleaning
G0 E7 X15 Z0.2 F500 ; purge
G0 X25 E4 F500 ; purge
G0 X35 E4 F650 ; purge
G0 X45 E4 F800 ; purge
G0 X48 Z0.05 F8000 ; wipe, move close to the bed
G0 X51 Z0.2 F8000 ; wipe, move quickly away from the bed

G92 E0
M221 S100 ; set flow to 100%
G21 ; set units to millimeters
G90 ; use absolute coordinates
M83 ; use relative distances for extrusion
M900 K0.05 ; Filament gcode


M572 S0.038 ; Filament gcode


M142 S36 ; set heatbreak target temp
M107
;LAYER_CHANGE
;Z:0.2
;HEIGHT:0.2
;BEFORE_LAYER_CHANGE
G92 E0.0
;0.2
M201 X4000 Y4000
M74 W0

G1 E-.7 F2100
G1 Z.2 F720
;AFTER_LAYER_CHANGE
;0.2
; printing object 6cm spacer.stl id:0 copy 0
G1 X123.191 Y77.543 F18000
G1 Z.2 F720
G1 E.7 F2100
M204 P500
;TYPE:Support material
;WIDTH:0.5
G1 F2400
G1 X123.715 Y77.566 E.01993
G1 X124.909 Y77.839 E.04655
G1 X125.941 Y78.28 E.04265
G1 X126.867 Y78.321 E.03523
G1 X128.061 Y78.594 E.04655
G1 X129.187 Y79.075 E.04654
G1 X130.209 Y79.75 E.04655
G1 X131.094 Y80.596 E.04653
G1 X131.813 Y81.586 E.0465
G1 X132.345 Y82.69 E.04658
G1 X132.67 Y83.87 E.04652
G1 X132.774 Y85.026 E.04411
G1 X132.848 Y85.097 E.0039
G1 X132.848 Y87.77 E.10159
G1 X132.915 Y88.279 E.01951
G1 X133.209 Y88.925 E.02698
G1 X133.48 Y89.258 E.01632
G1 X133.886 Y89.569 E.01944
G1 X134.393 Y89.785 E.02095
G1 X134.837 Y89.855 E.01708
G1 X135.363 Y89.819 E.02004
G1 X135.682 Y89.731 E.01258
G1 X139.123 Y87.784 E.15026
G1 X140.189 Y88.027 E.04155
G1 X140.526 Y88.171 E.01393
G1 X141.538 Y87.844 E.04042
G1 X142.753 Y87.681 E.04659
G1 X143.973 Y87.737 E.04642
G1 X145.168 Y88.011 E.0466
G1 X146.293 Y88.493 E.04652
G1 X147.313 Y89.168 E.04649
G1 X148.197 Y90.014 E.0465
G1 X148.915 Y91.004 E.04648
G1 X149.445 Y92.107 E.04651
G1 X149.77 Y93.286 E.04648
G1 X149.88 Y94.504 E.04648
G1 X149.771 Y95.722 E.04648
G1 X149.446 Y96.901 E.04648
G1 X148.916 Y98.003 E.04648
G1 X148.198 Y98.993 E.04648
G1 X147.314 Y99.84 E.04653
G1 X146.218 Y100.547 E.04957
G1 X145.909 Y101.194 E.02725
G1 X145.193 Y102.187 E.04653
G1 X144.629 Y102.73 E.02976
G1 X143.816 Y103.201 E.03571
G1 X143.438 Y103.494 E.01818
G1 X143.236 Y103.737 E.01201
G1 X142.164 Y104.199 E.04437
G1 X141.293 Y104.399 E.03397
G1 X141.294 Y104.798 E.01516
G1 X141.902 Y104.937 E.0237
G1 X142.841 Y105.338 E.03881
G1 X142.916 Y105.661 E.0126
G1 X143.099 Y106.072 E.0171
G1 X143.41 Y106.478 E.01944
G1 X143.67 Y106.701 E.01302
G1 X148.082 Y109.264 E.19392
G1 X148.211 Y109.281 E.00495
G1 X148.612 Y109.664 E.02108
G1 X149.332 Y110.655 E.04656
G1 X149.863 Y111.758 E.04653
G1 X150.189 Y112.938 E.04653
G1 X150.299 Y114.158 E.04656
G1 X150.189 Y115.377 E.04652
G1 X149.863 Y116.558 E.04656
G1 X149.332 Y117.661 E.04653
G1 X148.746 Y118.466 E.03784
G1 X148.584 Y119.057 E.02329
G1 X148.052 Y120.16 E.04654
G1 X147.333 Y121.151 E.04653
G1 X146.448 Y121.997 E.04653
G1 X145.426 Y122.671 E.04653
G1 X144.3 Y123.153 E.04655
G1 X143.106 Y123.425 E.04654
G1 X141.883 Y123.48 E.04653
G1 X140.669 Y123.316 E.04656
G1 X140.432 Y123.238 E.00948
G1 X140.381 Y123.05 E.0074
G1 X140.234 Y122.857 E.00922
G1 X135.966 Y120.396 E.18725
G1 X135.382 Y120.184 E.02361
G1 X134.978 Y120.138 E.01545
G1 X134.687 Y120.164 E.0111
G1 X133.564 Y119.268 E.0546
G1 X133.682 Y120.579 E.05003
G1 X133.452 Y120.77 E.01136
G1 X133.197 Y121.092 E.01561
G1 X132.915 Y121.721 E.0262
G1 X132.848 Y122.238 E.01981
G1 X132.848 Y124.183 E.07392
G1 X132.743 Y124.401 E.0092
G1 X131.941 Y125.47 E.05079
G1 X131.896 Y126.166 E.02651
G1 X131.618 Y127.335 E.04567
G1 X131.12 Y128.477 E.04735
G1 X130.424 Y129.487 E.04662
G1 X129.609 Y130.334 E.04467
G1 X128.498 Y131.17 E.05284
G1 X127.127 Y131.675 E.05553
G1 X125.889 Y131.895 E.04779
G1 X124.813 Y131.924 E.04091
G1 X123.587 Y131.804 E.04682
G1 X122.393 Y131.465 E.04717
G1 X121.273 Y130.914 E.04744
G1 X120.266 Y130.165 E.0477
G1 X119.36 Y129.133 E.05219
G1 X118.844 Y128.249 E.0389
G1 X118.398 Y127.129 E.04582
G1 X118.151 Y125.951 E.04575
G1 X118.109 Y125.119 E.03166
G1 X117.691 Y124.64 E.02416
G1 X117.152 Y123.738 E.03994
G1 X117.152 Y122.23 E.05731
G1 X117.085 Y121.721 E.01951
G1 X116.859 Y121.176 E.02242
G1 X116.414 Y120.652 E.02613
G1 X116.414 Y120.228 E.01611
G1 X116.11 Y120.428 E.01383
G1 X115.607 Y120.215 E.02076
G1 X115.062 Y120.138 E.02092
G1 X114.515 Y120.205 E.02094
G1 X114.192 Y120.318 E.01301
G1 X109.766 Y122.857 E.19393
G1 X109.619 Y123.05 E.00922
G1 X109.487 Y123.541 E.01932
G1 X109.333 Y123.576 E.006
G1 X108.11 Y123.631 E.04653
G1 X106.897 Y123.466 E.04653
G1 X105.732 Y123.088 E.04655
G1 X104.654 Y122.508 E.04652
G1 X103.696 Y121.744 E.04657
G1 X102.891 Y120.822 E.04652
G1 X102.263 Y119.771 E.04653
G1 X101.833 Y118.625 E.04652
G1 X101.613 Y117.302 E.05097
G1 X101.247 Y116.69 E.0271
G1 X100.817 Y115.544 E.04652
G1 X100.598 Y114.339 E.04655
G1 X100.598 Y113.114 E.04656
G1 X100.817 Y111.91 E.04651
G1 X101.247 Y110.763 E.04656
G1 X101.875 Y109.712 E.04653
G1 X102.621 Y108.858 E.0431
G1 X106.154 Y106.818 E.15505
G1 X106.473 Y106.584 E.01504
G1 X106.921 Y106.038 E.02684
G1 X107.117 Y105.565 E.01946
G1 X107.169 Y105.261 E.01172
G1 X107.395 Y105.14 E.00974
G1 X108.559 Y104.761 E.04653
G1 X109.773 Y104.597 E.04656
G1 X110.996 Y104.652 E.04653
G1 X112.19 Y104.924 E.04654
G1 X113.316 Y105.405 E.04654
G1 X114.337 Y106.08 E.04652
G1 X115.223 Y106.926 E.04656
G1 X115.942 Y107.917 E.04653
G1 X116.516 Y109.173 E.05248
G1 X116.749 Y109.327 E.01061
G1 X117.634 Y110.173 E.04653
G1 X118.354 Y111.164 E.04656
G1 X118.885 Y112.267 E.04653
G1 X119.211 Y113.447 E.04653
G1 X119.349 Y114.981 E.05854
G1 X120.532 Y114.345 E.05105
G1 X121.696 Y113.967 E.04651
G1 X122.91 Y113.802 E.04656
G1 X124.133 Y113.857 E.04653
G1 X125.327 Y114.13 E.04655
G1 X125.529 Y114.216 E.00834
G1 X126.574 Y114.074 E.04008
G1 X127.797 Y114.129 E.04653
G1 X128.991 Y114.402 E.04655
G1 X130.117 Y114.883 E.04654
G1 X131.139 Y115.558 E.04655
G1 X131.662 Y116.058 E.0275
G1 X131.982 Y115.886 E.01381
G1 X131.867 Y115.251 E.02453
G1 X131.867 Y114.026 E.04656
G1 X132.085 Y112.821 E.04654
G1 X132.515 Y111.675 E.04652
G1 X132.989 Y110.883 E.03508
G1 X133.207 Y109.615 E.0489
G1 X133.638 Y108.469 E.04653
G1 X134.266 Y107.418 E.04653
G1 X135.071 Y106.496 E.04652
G1 X136.029 Y105.732 E.04657
G1 X137.107 Y105.152 E.04652
G1 X138.463 Y104.711 E.05419
G1 X138.463 Y104.348 E.0138
G1 X137.361 Y103.991 E.04403
G1 X136.28 Y103.411 E.04662
G1 X135.32 Y102.646 E.04665
G1 X134.512 Y101.722 E.04665
G1 X133.883 Y100.668 E.04665
G1 X133.46 Y99.541 E.04575
G1 X132.553 Y98.537 E.05142
G1 X131.925 Y97.486 E.04653
G1 X131.447 Y96.213 E.05168
G1 X130.411 Y96.656 E.04282
G1 X129.217 Y96.928 E.04654
G1 X127.994 Y96.983 E.04653
G1 X126.781 Y96.819 E.04652
G1 X125.616 Y96.44 E.04656
G1 X124.538 Y95.86 E.04652
G1 X124.175 Y95.571 E.01763
G1 X123.483 Y95.602 E.02633
G1 X122.269 Y95.438 E.04656
G1 X121.105 Y95.059 E.04653
G1 X120.027 Y94.479 E.04652
G1 X119.069 Y93.716 E.04655
G1 X118.264 Y92.794 E.04652
G1 X117.636 Y91.742 E.04656
G1 X117.205 Y90.596 E.04653
G1 X116.987 Y89.391 E.04654
G1 X116.987 Y88.55 E.03196
G1 X117.085 Y88.279 E.01095
G1 X117.152 Y87.762 E.01981
G1 X117.152 Y82.879 E.18558
G1 X117.059 Y82.654 E.00925
G1 X116.408 Y82.003 E.03499
G1 X116.645 Y81.371 E.02565
G1 X117.273 Y80.32 E.04653
G1 X118.079 Y79.398 E.04654
G1 X119.036 Y78.634 E.04654
G1 X120.114 Y78.054 E.04652
G1 X121.279 Y77.676 E.04655
G1 X122.492 Y77.511 E.04653
G1 X123.122 Y77.539 E.02397
M204 P4000
M204 T4000
G1 X149.568 Y116.696 F18000
M204 P500
G1 F2400
G1 X149.568 Y112.235 E.16955
G1 X149.476 Y111.903 E.01309
G1 X148.997 Y110.907 E.042
G1 X148.997 Y117.409 E.24712
G1 X148.425 Y118.209 E.03738
G1 X148.425 Y110.107 E.30793
G1 X148.024 Y109.671 E.02251
G1 X147.854 Y109.607 E.0069
G1 X147.854 Y119.624 E.38071
G1 X147.698 Y119.948 E.01367
G1 X147.283 Y120.519 E.02683
G1 X147.283 Y109.278 E.42723
G1 X146.711 Y108.948 E.0251
G1 X146.711 Y121.175 E.4647
G1 X146.14 Y121.707 E.02966
G1 X146.14 Y108.618 E.49746
M73 P1 R30
G1 X145.569 Y108.288 E.02507
G1 X145.569 Y122.084 E.52434
G1 X144.997 Y122.407 E.02497
G1 X144.997 Y107.958 E.54915
G1 X144.426 Y107.628 E.02507
G1 X144.426 Y122.651 E.57097
G1 X143.855 Y122.832 E.02277
G1 X143.855 Y107.298 E.59039
G1 X143.283 Y106.917 E.02612
G1 X143.283 Y122.963 E.60985
G1 X142.712 Y123.031 E.02185
G1 X142.712 Y106.223 E.63881
G1 X142.475 Y105.629 E.02431
G1 X142.14 Y105.486 E.01384
G1 X142.14 Y123.057 E.66781
G1 X141.569 Y123.022 E.02174
G1 X141.569 Y105.072 E.68221
M204 P4000
G1 E-.7 F2100
G1 X141.569 Y105.072 Z.4 F18014.394
G1 X148.997 Y97.36 F18000
G1 Z.2 F720
G1 E.7 F2100
M204 P500
G1 F2400
G1 X148.997 Y92.123 E.19904
G1 X148.561 Y91.216 E.03825
G1 X148.425 Y91.03 E.00876
G1 X148.425 Y97.979 E.26411
G1 X147.854 Y98.753 E.03656
G1 X147.854 Y90.255 E.32298
G1 X147.283 Y89.708 E.03005
G1 X147.283 Y99.3 E.36456
G1 X146.711 Y99.745 E.02754
G1 X146.711 Y89.263 E.39838
G1 X146.14 Y88.885 E.02603
G1 X146.14 Y100.123 E.42712
G1 X145.914 Y100.23 E.0095
G1 X145.569 Y100.953 E.03045
G1 X145.569 Y88.63 E.46835
G1 X144.997 Y88.394 E.02352
G1 X144.997 Y101.755 E.5078
G1 X144.426 Y102.354 E.03145
G1 X144.426 Y88.263 E.53555
G1 X143.855 Y88.143 E.02218
G1 X143.855 Y102.702 E.55333
G1 X143.283 Y103.085 E.02616
G1 X143.283 Y88.117 E.56888
G1 X142.712 Y88.101 E.02171
G1 X142.712 Y103.515 E.58583
G1 X142.14 Y103.761 E.02366
G1 X142.14 Y88.178 E.59225
G1 X141.569 Y88.266 E.02196
G1 X141.569 Y104.125 E.60274
M204 P4000
G1 E-.7 F2100
G1 X141.569 Y104.125 Z.4 F18014.394
G1 X140.998 Y123.153 F18000
G1 Z.2 F720
G1 E.7 F2100
M204 P500
G1 F2400
G1 X140.998 Y88.451 E1.3189
G1 X140.506 Y88.61 E.01965
G1 X140.426 Y88.576 E.0033
G1 X140.426 Y122.494 E1.2891
G1 X139.855 Y122.164 E.02507
G1 X139.855 Y88.373 E1.28427
G1 X139.284 Y88.243 E.02226
G1 X139.284 Y121.834 E1.27667
G1 X138.712 Y121.504 E.0251
G1 X138.712 Y88.496 E1.25451
G1 X138.141 Y88.826 E.02507
G1 X138.141 Y103.811 E.56952
G1 X137.57 Y103.626 E.02281
G1 X137.57 Y89.156 E.54995
G1 X136.998 Y89.485 E.02508
G1 X136.998 Y103.33 E.5262
G1 X136.427 Y103.002 E.02503
G1 X136.427 Y89.815 E.50119
G1 X135.856 Y90.105 E.02434
G1 X135.856 Y102.547 E.47287
G1 X135.605 Y102.347 E.0122
G1 X135.284 Y101.98 E.01853
G1 X135.284 Y90.244 E.44604
G1 X134.713 Y90.255 E.02171
G1 X134.713 Y101.256 E.41811
G1 X134.255 Y100.489 E.03395
G1 X134.142 Y100.186 E.01229
G1 X134.142 Y90.133 E.38208
G1 X133.57 Y89.853 E.0242
G1 X133.57 Y99.077 E.35057
G1 X132.999 Y98.423 E.033
M73 P2 R30
G1 X132.999 Y89.327 E.34571
G1 X132.703 Y88.872 E.02063
G1 X132.486 Y88.23 E.02576
G1 X132.437 Y87.782 E.01713
G1 X132.428 Y85.264 E.0957
G1 X132.428 Y97.526 E.46603
G1 X132.297 Y97.307 E.0097
G1 X131.856 Y96.133 E.04766
G1 X131.856 Y82.623 E.51347
G1 X131.459 Y81.798 E.0348
G1 X131.285 Y81.559 E.01124
G1 X131.285 Y95.835 E.54258
G1 X130.713 Y96.079 E.02363
G1 X130.713 Y80.801 E.58066
G1 X130.142 Y80.255 E.03003
G1 X130.142 Y96.295 E.60962
G1 X129.571 Y96.426 E.02227
G1 X129.571 Y79.821 E.6311
G1 X128.999 Y79.444 E.02604
G1 X128.999 Y96.526 E.64922
G1 X128.428 Y96.552 E.02172
G1 X128.428 Y79.198 E.65956
G1 X127.857 Y78.969 E.02338
G1 X127.857 Y96.549 E.66815
G1 X127.285 Y96.472 E.02194
G1 X127.285 Y78.839 E.67017
G1 X126.714 Y78.726 E.02212
G1 X126.714 Y96.365 E.67039
G1 X126.143 Y96.179 E.02282
G1 X126.143 Y78.701 E.66427
G1 X125.848 Y78.687 E.01122
G1 X125.571 Y78.569 E.01144
G1 X125.571 Y95.949 E.66055
G1 X125 Y95.642 E.02464
G1 X125 Y78.325 E.65816
G1 X124.429 Y78.151 E.02269
G1 X124.429 Y95.247 E.64976
G1 X124.311 Y95.153 E.00573
G1 X123.857 Y95.174 E.01727
G1 X123.857 Y78.02 E.65196
G1 X123.286 Y77.959 E.02183
G1 X123.286 Y95.16 E.65375
G1 X122.715 Y95.083 E.0219
G1 X122.715 Y77.933 E.65181
G1 X122.143 Y77.974 E.0218
G1 X122.143 Y94.964 E.64573
G1 X121.572 Y94.779 E.02281
G1 X121.572 Y78.051 E.63577
G1 X121.001 Y78.198 E.02241
G1 X121.001 Y94.536 E.62095
G1 X120.429 Y94.229 E.02467
G1 X120.429 Y78.384 E.60221
G1 X119.858 Y78.659 E.02409
G1 X119.858 Y93.818 E.57614
G1 X119.287 Y93.339 E.02833
G1 X119.287 Y78.966 E.54626
G1 X118.715 Y79.416 E.02766
G1 X118.715 Y92.685 E.50431
G1 X118.144 Y91.791 E.04032
G1 X118.144 Y79.948 E.45011
G1 X117.572 Y80.621 E.03357
G1 X117.572 Y90.315 E.36843
G1 X117.398 Y89.354 E.03712
G1 X117.398 Y88.631 E.02748
G1 X117.522 Y88.191 E.01737
G1 X117.563 Y87.769 E.01611
G1 X117.563 Y82.797 E.18897
G1 X117.408 Y82.421 E.01546
G1 X117.001 Y82.015 E.02185
G1 X117.001 Y81.176 E.03189
M204 P4000
G1 E-.7 F2100
G1 X117.001 Y81.176 Z.4 F18014.394
G1 X138.141 Y121.412 F18000
G1 Z.2 F720
G1 E.7 F2100
M204 P500
G1 F2400
G1 X138.141 Y105.248 E.61433
G1 X137.57 Y105.434 E.02282
G1 X137.57 Y120.844 E.58568
G1 X136.998 Y120.515 E.02508
G1 X136.998 Y105.678 E.5639
G1 X136.427 Y105.985 E.02464
G1 X136.427 Y120.185 E.53969
G1 X135.856 Y119.9 E.02425
G1 X135.856 Y106.396 E.51324
G1 X135.284 Y106.877 E.0284
G1 X135.284 Y119.756 E.48948
G1 X134.809 Y119.734 E.01807
G1 X134.713 Y119.658 E.00465
G1 X134.713 Y107.531 E.4609
G1 X134.142 Y108.427 E.04038
G1 X134.142 Y119.202 E.40952
G1 X133.57 Y118.747 E.02778
G1 X133.57 Y109.919 E.33552
G1 X133.4 Y110.997 E.04148
G1 X132.999 Y111.668 E.02971
G1 X132.999 Y120.673 E.34225
G1 X132.703 Y121.128 E.02063
M73 P3 R30
G1 X132.475 Y121.827 E.02794
G1 X132.428 Y124.108 E.08671
G1 X132.428 Y112.495 E.44137
M204 P4000
G1 X131.856 Y125.267 F18000
M204 P500
G1 F2400
G1 X131.856 Y116.42 E.33624
G1 X131.594 Y116.562 E.01133
G1 X131.285 Y116.266 E.01626
G1 X131.285 Y126.959 E.4064
G1 X131.227 Y127.204 E.00957
M73 P3 R29
G1 X130.713 Y128.341 E.04742
G1 X130.713 Y115.77 E.47778
G1 X130.142 Y115.393 E.02601
G1 X130.142 Y129.172 E.52369
G1 X129.571 Y129.78 E.0317
